res/luts/invert.CUBE
#Created by: Adobe Photoshop Export Color Lookup Plugin
TITLE "Untitled-1"
#LUT size
LUT_3D_SIZE 32
#data domain
DOMAIN_MIN 0.0 0.0 0.0
DOMAIN_MAX 1.0 1.0 1.0
#LUT data points
1.000000 1.000000 1.000000
0.967743 1.000000 1.000000
0.935486 1.000000 1.000000
0.903229 1.000000 1.000000
0.870972 1.000000 1.000000
0.838715 1.000000 1.000000
0.806458 1.000000 1.000000
0.774200 1.000000 1.000000
0.741943 1.000000 1.000000
0.709686 1.000000 1.000000
0.677429 1.000000 1.000000
0.645172 1.000000 1.000000
0.612915 1.000000 1.000000
0.580658 1.000000 1.000000
0.548401 1.000000 1.000000
0.516144 1.000000 1.000000
0.483856 1.000000 1.000000
0.451599 1.000000 1.000000
0.419342 1.000000 1.000000
0.387085 1.000000 1.000000
0.354828 1.000000 1.000000
0.322571 1.000000 1.000000
0.290314 1.000000 1.000000
0.258057 1.000000 1.000000
0.225800 1.000000 1.000000
0.193542 1.000000 1.000000
0.161285 1.000000 1.000000
0.129028 1.000000 1.000000
0.096771 1.000000 1.000000
0.064514 1.000000 1.000000
0.032257 1.000000 1.000000
0.000000 1.000000 1.000000
1.000000 0.967743 1.000000
0.967743 0.967743 1.000000
0.935486 0.967743 1.000000
0.903229 0.967743 1.000000
0.870972 0.967743 1.000000
0.838715 0.967743 1.000000
0.806458 0.967743 1.000000
0.774200 0.967743 1.000000
0.741943 0.967743 1.000000
0.709686 0.967743 1.000000
0.677429 0.967743 1.000000
0.645172 0.967743 1.000000
0.612915 0.967743 1.000000
0.580658 0.967743 1.000000
0.548401 0.967743 1.000000
0.516144 0.967743 1.000000
0.483856 0.967743 1.000000
0.451599 0.967743 1.000000
0.419342 0.967743 1.000000
0.387085 0.967743 1.000000
0.354828 0.967743 1.000000
0.322571 0.967743 1.000000
0.290314 0.967743 1.000000
0.258057 0.967743 1.000000
0.225800 0.967743 1.000000
0.193542 0.967743 1.000000
0.161285 0.967743 1.000000
0.129028 0.967743 1.000000
0.096771 0.967743 1.000000
0.064514 0.967743 1.000000
0.032257 0.967743 1.000000
0.000000 0.967743 1.000000
1.000000 0.935486 1.000000
0.967743 0.935486 1.000000
0.935486 0.935486 1.000000
0.903229 0.935486 1.000000
0.870972 0.935486 1.000000
0.838715 0.935486 1.000000
0.806458 0.935486 1.000000
0.774200 0.935486 1.000000
0.741943 0.935486 1.000000
0.709686 0.935486 1.000000
0.677429 0.935486 1.000000
0.645172 0.935486 1.000000
0.612915 0.935486 1.000000
0.580658 0.935486 1.000000
0.548401 0.935486 1.000000
0.516144 0.935486 1.000000
0.483856 0.935486 1.000000
0.451599 0.935486 1.000000
0.419342 0.935486 1.000000
0.387085 0.935486 1.000000
0.354828 0.935486 1.000000
0.322571 0.935486 1.000000
0.290314 0.935486 1.000000
0.258057 0.935486 1.000000
0.225800 0.935486 1.000000
0.193542 0.935486 1.000000
0.161285 0.935486 1.000000
0.129028 0.935486 1.000000
0.096771 0.935486 1.000000
0.064514 0.935486 1.000000
0.032257 0.935486 1.000000
0.000000 0.935486 1.000000
1.000000 0.903229 1.000000
0.967743 0.903229 1.000000
0.935486 0.903229 1.000000
0.903229 0.903229 1.000000
0.870972 0.903229 1.000000
0.838715 0.903229 1.000000
0.806458 0.903229 1.000000
0.774200 0.903229 1.000000
0.741943 0.903229 1.000000
0.709686 0.903229 1.000000
0.677429 0.903229 1.000000
0.645172 0.903229 1.000000
0.612915 0.903229 1.000000
0.580658 0.903229 1.000000
0.548401 0.903229 1.000000
0.516144 0.903229 1.000000
0.483856 0.903229 1.000000
0.451599 0.903229 1.000000
0.419342 0.903229 1.000000
0.387085 0.903229 1.000000
0.354828 0.903229 1.000000
0.322571 0.903229 1.000000
0.290314 0.903229 1.000000
0.258057 0.903229 1.000000
0.225800 0.903229 1.000000
0.193542 0.903229 1.000000
0.161285 0.903229 1.000000
0.129028 0.903229 1.000000
0.096771 0.903229 1.000000
0.064514 0.903229 1.000000
0.032257 0.903229 1.000000
0.000000 0.903229 1.000000
1.000000 0.870972 1.000000
0.967743 0.870972 1.000000
0.935486 0.870972 1.000000
0.903229 0.870972 1.000000
0.870972 0.870972 1.000000
0.838715 0.870972 1.000000
0.806458 0.870972 1.000000
0.774200 0.870972 1.000000
0.741943 0.870972 1.000000
0.709686 0.870972 1.000000
0.677429 0.870972 1.000000
0.645172 0.870972 1.000000
0.612915 0.870972 1.000000
0.580658 0.870972 1.000000
0.548401 0.870972 1.000000
0.516144 0.870972 1.000000
0.483856 0.870972 1.000000
0.451599 0.870972 1.000000
0.419342 0.870972 1.000000
0.387085 0.870972 1.000000
0.354828 0.870972 1.000000
0.322571 0.870972 1.000000
0.290314 0.870972 1.000000
0.258057 0.870972 1.000000
0.225800 0.870972 1.000000
0.193542 0.870972 1.000000
0.161285 0.870972 1.000000
0.129028 0.870972 1.000000
0.096771 0.870972 1.000000
0.064514 0.870972 1.000000
0.032257 0.870972 1.000000
0.000000 0.870972 1.000000
1.000000 0.838715 1.000000
0.967743 0.838715 1.000000
0.935486 0.838715 1.000000
0.903229 0.838715 1.000000
0.870972 0.838715 1.000000
0.838715 0.838715 1.000000
0.806458 0.838715 1.000000
0.774200 0.838715 1.000000
0.741943 0.838715 1.000000
0.709686 0.838715 1.000000
0.677429 0.838715 1.000000
0.645172 0.838715 1.000000
0.612915 0.838715 1.000000
0.580658 0.838715 1.000000
0.548401 0.838715 1.000000
0.516144 0.838715 1.000000
0.483856 0.838715 1.000000
0.451599 0.838715 1.000000
0.419342 0.838715 1.000000
0.387085 0.838715 1.000000
0.354828 0.838715 1.000000
0.322571 0.838715 1.000000
0.290314 0.838715 1.000000
0.258057 0.838715 1.000000
0.225800 0.838715 1.000000
0.193542 0.838715 1.000000
0.161285 0.838715 1.000000
0.129028 0.838715 1.000000
0.096771 0.838715 1.000000
0.064514 0.838715 1.000000
0.032257 0.838715 1.000000
0.000000 0.838715 1.000000
1.000000 0.806458 1.000000
0.967743 0.806458 1.000000
0.935486 0.806458 1.000000
0.903229 0.806458 1.000000
0.870972 0.806458 1.000000
0.838715 0.806458 1.000000
0.806458 0.806458 1.000000
0.774200 0.806458 1.000000
0.741943 0.806458 1.000000
0.709686 0.806458 1.000000
0.677429 0.806458 1.000000
0.645172 0.806458 1.000000
0.612915 0.806458 1.000000
0.580658 0.806458 1.000000
0.548401 0.806458 1.000000
0.516144 0.806458 1.000000
0.483856 0.806458 1.000000
0.451599 0.806458 1.000000
0.419342 0.806458 1.000000
0.387085 0.806458 1.000000
0.354828 0.806458 1.000000
0.322571 0.806458 1.000000
0.290314 0.806458 1.000000
0.258057 0.806458 1.000000
0.225800 0.806458 1.000000
0.193542 0.806458 1.000000
0.161285 0.806458 1.000000
0.129028 0.806458 1.000000
0.096771 0.806458 1.000000
0.064514 0.806458 1.000000
0.032257 0.806458 1.000000
0.000000 0.806458 1.000000
1.000000 0.774200 1.000000
0.967743 0.774200 1.000000
0.935486 0.774200 1.000000
0.903229 0.774200 1.000000
0.870972 0.774200 1.000000
0.838715 0.774200 1.000000
0.806458 0.774200 1.000000
0.774200 0.774200 1.000000
0.741943 0.774200 1.000000
0.709686 0.774200 1.000000
0.677429 0.774200 1.000000
0.645172 0.774200 1.000000
0.612915 0.774200 1.000000
0.580658 0.774200 1.000000
0.548401 0.774200 1.000000
0.516144 0.774200 1.000000
0.483856 0.774200 1.000000
0.451599 0.774200 1.000000
0.419342 0.774200 1.000000
0.387085 0.774200 1.000000
0.354828 0.774200 1.000000
0.322571 0.774200 1.000000
0.290314 0.774200 1.000000
0.258057 0.774200 1.000000
0.225800 0.774200 1.000000
0.193542 0.774200 1.000000
0.161285 0.774200 1.000000
0.129028 0.774200 1.000000
0.096771 0.774200 1.000000
0.064514 0.774200 1.000000
0.032257 0.774200 1.000000
0.000000 0.774200 1.000000
1.000000 0.741943 1.000000
0.967743 0.741943 1.000000
0.935486 0.741943 1.000000
0.903229 0.741943 1.000000
0.870972 0.741943 1.000000
0.838715 0.741943 1.000000
0.806458 0.741943 1.000000
0.774200 0.741943 1.000000
0.741943 0.741943 1.000000
0.709686 0.741943 1.000000
0.677429 0.741943 1.000000
0.645172 0.741943 1.000000
0.612915 0.741943 1.000000
0.580658 0.741943 1.000000
0.548401 0.741943 1.000000
0.516144 0.741943 1.000000
0.483856 0.741943 1.000000
0.451599 0.741943 1.000000
0.419342 0.741943 1.000000
0.387085 0.741943 1.000000
0.354828 0.741943 1.000000
0.322571 0.741943 1.000000
0.290314 0.741943 1.000000
0.258057 0.741943 1.000000
0.225800 0.741943 1.000000
0.193542 0.741943 1.000000
0.161285 0.741943 1.000000
0.129028 0.741943 1.000000
0.096771 0.741943 1.000000
0.064514 0.741943 1.000000
0.032257 0.741943 1.000000
0.000000 0.741943 1.000000
1.000000 0.709686 1.000000
0.967743 0.709686 1.000000
0.935486 0.709686 1.000000
0.903229 0.709686 1.000000
0.870972 0.709686 1.000000
0.838715 0.709686 1.000000
0.806458 0.709686 1.000000
0.774200 0.709686 1.000000
0.741943 0.709686 1.000000
0.709686 0.709686 1.000000
0.677429 0.709686 1.000000
0.645172 0.709686 1.000000
0.612915 0.709686 1.000000
0.580658 0.709686 1.000000
0.548401 0.709686 1.000000
0.516144 0.709686 1.000000
0.483856 0.709686 1.000000
0.451599 0.709686 1.000000
0.419342 0.709686 1.000000
0.387085 0.709686 1.000000
0.354828 0.709686 1.000000
0.322571 0.709686 1.000000
0.290314 0.709686 1.000000
0.258057 0.709686 1.000000
0.225800 0.709686 1.000000
0.193542 0.709686 1.000000
0.161285 0.709686 1.000000
0.129028 0.709686 1.000000
0.096771 0.709686 1.000000
0.064514 0.709686 1.000000
0.032257 0.709686 1.000000
0.000000 0.709686 1.000000
1.000000 0.677429 1.000000
0.967743 0.677429 1.000000
0.935486 0.677429 1.000000
0.903229 0.677429 1.000000
0.870972 0.677429 1.000000
0.838715 0.677429 1.000000
0.806458 0.677429 1.000000
0.774200 0.677429 1.000000
0.741943 0.677429 1.000000
0.709686 0.677429 1.000000
0.677429 0.677429 1.000000
0.645172 0.677429 1.000000
0.612915 0.677429 1.000000
0.580658 0.677429 1.000000
0.548401 0.677429 1.000000
0.516144 0.677429 1.000000
0.483856 0.677429 1.000000
0.451599 0.677429 1.000000
0.419342 0.677429 1.000000
0.387085 0.677429 1.000000
0.354828 0.677429 1.000000
0.322571 0.677429 1.000000
0.290314 0.677429 1.000000
0.258057 0.677429 1.000000
0.225800 0.677429 1.000000
0.193542 0.677429 1.000000
0.161285 0.677429 1.000000
0.129028 0.677429 1.000000
0.096771 0.677429 1.000000
0.064514 0.677429 1.000000
0.032257 0.677429 1.000000
0.000000 0.677429 1.000000
1.000000 0.645172 1.000000
0.967743 0.645172 1.000000
0.935486 0.645172 1.000000
0.903229 0.645172 1.000000
0.870972 0.645172 1.000000
0.838715 0.645172 1.000000
0.806458 0.645172 1.000000
0.774200 0.645172 1.000000
0.741943 0.645172 1.000000
0.709686 0.645172 1.000000
0.677429 0.645172 1.000000
0.645172 0.645172 1.000000
0.612915 0.645172 1.000000
0.580658 0.645172 1.000000
0.548401 0.645172 1.000000
0.516144 0.645172 1.000000
0.483856 0.645172 1.000000
0.451599 0.645172 1.000000
0.419342 0.645172 1.000000
0.387085 0.645172 1.000000
0.354828 0.645172 1.000000
0.322571 0.645172 1.000000
0.290314 0.645172 1.000000
0.258057 0.645172 1.000000
0.225800 0.645172 1.000000
0.193542 0.645172 1.000000
0.161285 0.645172 1.000000
0.129028 0.645172 1.000000
0.096771 0.645172 1.000000
0.064514 0.645172 1.000000
0.032257 0.645172 1.000000
0.000000 0.645172 1.000000
1.000000 0.612915 1.000000
0.967743 0.612915 1.000000
0.935486 0.612915 1.000000
0.903229 0.612915 1.000000
0.870972 0.612915 1.000000
0.838715 0.612915 1.000000
0.806458 0.612915 1.000000
0.774200 0.612915 1.000000
0.741943 0.612915 1.000000
0.709686 0.612915 1.000000
0.677429 0.612915 1.000000
0.645172 0.612915 1.000000
0.612915 0.612915 1.000000
0.580658 0.612915 1.000000
0.548401 0.612915 1.000000
0.516144 0.612915 1.000000
0.483856 0.612915 1.000000
0.451599 0.612915 1.000000
0.419342 0.612915 1.000000
0.387085 0.612915 1.000000
0.354828 0.612915 1.000000
0.322571 0.612915 1.000000
0.290314 0.612915 1.000000
0.258057 0.612915 1.000000
0.225800 0.612915 1.000000
0.193542 0.612915 1.000000
0.161285 0.612915 1.000000
0.129028 0.612915 1.000000
0.096771 0.612915 1.000000
0.064514 0.612915 1.000000
0.032257 0.612915 1.000000
0.000000 0.612915 1.000000
1.000000 0.580658 1.000000
0.967743 0.580658 1.000000
0.935486 0.580658 1.000000
0.903229 0.580658 1.000000
0.870972 0.580658 1.000000
0.838715 0.580658 1.000000
0.806458 0.580658 1.000000
0.774200 0.580658 1.000000
0.741943 0.580658 1.000000
0.709686 0.580658 1.000000
0.677429 0.580658 1.000000
0.645172 0.580658 1.000000
0.612915 0.580658 1.000000
0.580658 0.580658 1.000000
0.548401 0.580658 1.000000
0.516144 0.580658 1.000000
0.483856 0.580658 1.000000
0.451599 0.580658 1.000000
0.419342 0.580658 1.000000
0.387085 0.580658 1.000000
0.354828 0.580658 1.000000
0.322571 0.580658 1.000000
0.290314 0.580658 1.000000
0.258057 0.580658 1.000000
0.225800 0.580658 1.000000
0.193542 0.580658 1.000000
0.161285 0.580658 1.000000
0.129028 0.580658 1.000000
0.096771 0.580658 1.000000
0.064514 0.580658 1.000000
0.032257 0.580658 1.000000
0.000000 0.580658 1.000000
1.000000 0.548401 1.000000
0.967743 0.548401 1.000000
0.935486 0.548401 1.000000
0.903229 0.548401 1.000000
0.870972 0.548401 1.000000
0.838715 0.548401 1.000000
0.806458 0.548401 1.000000
0.774200 0.548401 1.000000
0.741943 0.548401 1.000000
0.709686 0.548401 1.000000
0.677429 0.548401 1.000000
0.645172 0.548401 1.000000
0.612915 0.548401 1.000000
0.580658 0.548401 1.000000
0.548401 0.548401 1.000000
0.516144 0.548401 1.000000
0.483856 0.548401 1.000000
0.451599 0.548401 1.000000
0.419342 0.548401 1.000000
0.387085 0.548401 1.000000
0.354828 0.548401 1.000000
0.322571 0.548401 1.000000
0.290314 0.548401 1.000000
0.258057 0.548401 1.000000
0.225800 0.548401 1.000000
0.193542 0.548401 1.000000
0.161285 0.548401 1.000000
0.129028 0.548401 1.000000
0.096771 0.548401 1.000000
0.064514 0.548401 1.000000
0.032257 0.548401 1.000000
0.000000 0.548401 1.000000
1.000000 0.516144 1.000000
0.967743 0.516144 1.000000
0.935486 0.516144 1.000000
0.903229 0.516144 1.000000
0.870972 0.516144 1.000000
0.838715 0.516144 1.000000
0.806458 0.516144 1.000000
0.774200 0.516144 1.000000
0.741943 0.516144 1.000000
0.709686 0.516144 1.000000
0.677429 0.516144 1.000000
0.645172 0.516144 1.000000
0.612915 0.516144 1.000000
0.580658 0.516144 1.000000
0.548401 0.516144 1.000000
0.516144 0.516144 1.000000
0.483856 0.516144 1.000000
0.451599 0.516144 1.000000
0.419342 0.516144 1.000000
0.387085 0.516144 1.000000
0.354828 0.516144 1.000000
0.322571 0.516144 1.000000
0.290314 0.516144 1.000000
0.258057 0.516144 1.000000
0.225800 0.516144 1.000000
0.193542 0.516144 1.000000
0.161285 0.516144 1.000000
0.129028 0.516144 1.000000
0.096771 0.516144 1.000000
0.064514 0.516144 1.000000
0.032257 0.516144 1.000000
0.000000 0.516144 1.000000
1.000000 0.483856 1.000000
0.967743 0.483856 1.000000
0.935486 0.483856 1.000000
0.903229 0.483856 1.000000
0.870972 0.483856 1.000000
0.838715 0.483856 1.000000
0.806458 0.483856 1.000000
0.774200 0.483856 1.000000
0.741943 0.483856 1.000000
0.709686 0.483856 1.000000
0.677429 0.483856 1.000000
0.645172 0.483856 1.000000
0.612915 0.483856 1.000000
0.580658 0.483856 1.000000
0.548401 0.483856 1.000000
0.516144 0.483856 1.000000
0.483856 0.483856 1.000000
0.451599 0.483856 1.000000
0.419342 0.483856 1.000000
0.387085 0.483856 1.000000
0.354828 0.483856 1.000000
0.322571 0.483856 1.000000
0.290314 0.483856 1.000000
0.258057 0.483856 1.000000
0.225800 0.483856 1.000000
0.193542 0.483856 1.000000
0.161285 0.483856 1.000000
0.129028 0.483856 1.000000
0.096771 0.483856 1.000000
0.064514 0.483856 1.000000
0.032257 0.483856 1.000000
0.000000 0.483856 1.000000
1.000000 0.451599 1.000000
0.967743 0.451599 1.000000
0.935486 0.451599 1.000000
0.903229 0.451599 1.000000
0.870972 0.451599 1.000000
0.838715 0.451599 1.000000
0.806458 0.451599 1.000000
0.774200 0.451599 1.000000
0.741943 0.451599 1.000000
0.709686 0.451599 1.000000
0.677429 0.451599 1.000000
0.645172 0.451599 1.000000
0.612915 0.451599 1.000000
0.580658 0.451599 1.000000
0.548401 0.451599 1.000000
0.516144 0.451599 1.000000
0.483856 0.451599 1.000000
0.451599 0.451599 1.000000
0.419342 0.451599 1.000000
0.387085 0.451599 1.000000
0.354828 0.451599 1.000000
0.322571 0.451599 1.000000
0.290314 0.451599 1.000000
0.258057 0.451599 1.000000
0.225800 0.451599 1.000000
0.193542 0.451599 1.000000
0.161285 0.451599 1.000000
0.129028 0.451599 1.000000
0.096771 0.451599 1.000000
0.064514 0.451599 1.000000
0.032257 0.451599 1.000000
0.000000 0.451599 1.000000
1.000000 0.419342 1.000000
0.967743 0.419342 1.000000
0.935486 0.419342 1.000000
0.903229 0.419342 1.000000
0.870972 0.419342 1.000000
0.838715 0.419342 1.000000
0.806458 0.419342 1.000000
0.774200 0.419342 1.000000
0.741943 0.419342 1.000000
0.709686 0.419342 1.000000
0.677429 0.419342 1.000000
0.645172 0.419342 1.000000
0.612915 0.419342 1.000000
0.580658 0.419342 1.000000
0.548401 0.419342 1.000000
0.516144 0.419342 1.000000
0.483856 0.419342 1.000000
0.451599 0.419342 1.000000
0.419342 0.419342 1.000000
0.387085 0.419342 1.000000
0.354828 0.419342 1.000000
0.322571 0.419342 1.000000
0.290314 0.419342 1.000000
0.258057 0.419342 1.000000
0.225800 0.419342 1.000000
0.193542 0.419342 1.000000
0.161285 0.419342 1.000000
0.129028 0.419342 1.000000
0.096771 0.419342 1.000000
0.064514 0.419342 1.000000
0.032257 0.419342 1.000000
0.000000 0.419342 1.000000
1.000000 0.387085 1.000000
0.967743 0.387085 1.000000
0.935486 0.387085 1.000000
0.903229 0.387085 1.000000
0.870972 0.387085 1.000000
0.838715 0.387085 1.000000
0.806458 0.387085 1.000000
0.774200 0.387085 1.000000
0.741943 0.387085 1.000000
0.709686 0.387085 1.000000
0.677429 0.387085 1.000000
0.645172 0.387085 1.000000
0.612915 0.387085 1.000000
0.580658 0.387085 1.000000
0.548401 0.387085 1.000000
0.516144 0.387085 1.000000
0.483856 0.387085 1.000000
0.451599 0.387085 1.000000
0.419342 0.387085 1.000000
0.387085 0.387085 1.000000
0.354828 0.387085 1.000000
0.322571 0.387085 1.000000
0.290314 0.387085 1.000000
0.258057 0.387085 1.000000
0.225800 0.387085 1.000000
0.193542 0.387085 1.000000
0.161285 0.387085 1.000000
0.129028 0.387085 1.000000
0.096771 0.387085 1.000000
0.064514 0.387085 1.000000
0.032257 0.387085 1.000000
0.000000 0.387085 1.000000
1.000000 0.354828 1.000000
0.967743 0.354828 1.000000
0.935486 0.354828 1.000000
0.903229 0.354828 1.000000
0.870972 0.354828 1.000000
0.838715 0.354828 1.000000
0.806458 0.354828 1.000000
0.774200 0.354828 1.000000
0.741943 0.354828 1.000000
0.709686 0.354828 1.000000
0.677429 0.354828 1.000000
0.645172 0.354828 1.000000
0.612915 0.354828 1.000000
0.580658 0.354828 1.000000
0.548401 0.354828 1.000000
0.516144 0.354828 1.000000
0.483856 0.354828 1.000000
0.451599 0.354828 1.000000
0.419342 0.354828 1.000000
0.387085 0.354828 1.000000
0.354828 0.354828 1.000000
0.322571 0.354828 1.000000
0.290314 0.354828 1.000000
0.258057 0.354828 1.000000
0.225800 0.354828 1.000000
0.193542 0.354828 1.000000
0.161285 0.354828 1.000000
0.129028 0.354828 1.000000
0.096771 0.354828 1.000000
0.064514 0.354828 1.000000
0.032257 0.354828 1.000000
0.000000 0.354828 1.000000
1.000000 0.322571 1.000000
0.967743 0.322571 1.000000
0.935486 0.322571 1.000000
0.903229 0.322571 1.000000
0.870972 0.322571 1.000000
0.838715 0.322571 1.000000
0.806458 0.322571 1.000000
0.774200 0.322571 1.000000
0.741943 0.322571 1.000000
0.709686 0.322571 1.000000
0.677429 0.322571 1.000000
0.645172 0.322571 1.000000
0.612915 0.322571 1.000000
0.580658 0.322571 1.000000
0.548401 0.322571 1.000000
0.516144 0.322571 1.000000
0.483856 0.322571 1.000000
0.451599 0.322571 1.000000
0.419342 0.322571 1.000000
0.387085 0.322571 1.000000
0.354828 0.322571 1.000000
0.322571 0.322571 1.000000
0.290314 0.322571 1.000000
0.258057 0.322571 1.000000
0.225800 0.322571 1.000000
0.193542 0.322571 1.000000
0.161285 0.322571 1.000000
0.129028 0.322571 1.000000
0.096771 0.322571 1.000000
0.064514 0.322571 1.000000
0.032257 0.322571 1.000000
0.000000 0.322571 1.000000
1.000000 0.290314 1.000000
0.967743 0.290314 1.000000
0.935486 0.290314 1.000000
0.903229 0.290314 1.000000
0.870972 0.290314 1.000000
0.838715 0.290314 1.000000
0.806458 0.290314 1.000000
0.774200 0.290314 1.000000
0.741943 0.290314 1.000000
0.709686 0.290314 1.000000
0.677429 0.290314 1.000000
0.645172 0.290314 1.000000
0.612915 0.290314 1.000000
0.580658 0.290314 1.000000
0.548401 0.290314 1.000000
0.516144 0.290314 1.000000
0.483856 0.290314 1.000000
0.451599 0.290314 1.000000
0.419342 0.290314 1.000000
0.387085 0.290314 1.000000
0.354828 0.290314 1.000000
0.322571 0.290314 1.000000
0.290314 0.290314 1.000000
0.258057 0.290314 1.000000
0.225800 0.290314 1.000000
0.193542 0.290314 1.000000
0.161285 0.290314 1.000000
0.129028 0.290314 1.000000
0.096771 0.290314 1.000000
0.064514 0.290314 1.000000
0.032257 0.290314 1.000000
0.000000 0.290314 1.000000
1.000000 0.258057 1.000000
0.967743 0.258057 1.000000
0.935486 0.258057 1.000000
0.903229 0.258057 1.000000
0.870972 0.258057 1.000000
0.838715 0.258057 1.000000
0.806458 0.258057 1.000000
0.774200 0.258057 1.000000
0.741943 0.258057 1.000000
0.709686 0.258057 1.000000
0.677429 0.258057 1.000000
0.645172 0.258057 1.000000
0.612915 0.258057 1.000000
0.580658 0.258057 1.000000
0.548401 0.258057 1.000000
0.516144 0.258057 1.000000
0.483856 0.258057 1.000000
0.451599 0.258057 1.000000
0.419342 0.258057 1.000000
0.387085 0.258057 1.000000
0.354828 0.258057 1.000000
0.322571 0.258057 1.000000
0.290314 0.258057 1.000000
0.258057 0.258057 1.000000
0.225800 0.258057 1.000000
0.193542 0.258057 1.000000
0.161285 0.258057 1.000000
0.129028 0.258057 1.000000
0.096771 0.258057 1.000000
0.064514 0.258057 1.000000
0.032257 0.258057 1.000000
0.000000 0.258057 1.000000
1.000000 0.225800 1.000000
0.967743 0.225800 1.000000
0.935486 0.225800 1.000000
0.903229 0.225800 1.000000
0.870972 0.225800 1.000000
0.838715 0.225800 1.000000
0.806458 0.225800 1.000000
0.774200 0.225800 1.000000
0.741943 0.225800 1.000000
0.709686 0.225800 1.000000
0.677429 0.225800 1.000000
0.645172 0.225800 1.000000
0.612915 0.225800 1.000000
0.580658 0.225800 1.000000
0.548401 0.225800 1.000000
0.516144 0.225800 1.000000
0.483856 0.225800 1.000000
0.451599 0.225800 1.000000
0.419342 0.225800 1.000000
0.387085 0.225800 1.000000
0.354828 0.225800 1.000000
0.322571 0.225800 1.000000
0.290314 0.225800 1.000000
0.258057 0.225800 1.000000
0.225800 0.225800 1.000000
0.193542 0.225800 1.000000
0.161285 0.225800 1.000000
0.129028 0.225800 1.000000
0.096771 0.225800 1.000000
0.064514 0.225800 1.000000
0.032257 0.225800 1.000000
0.000000 0.225800 1.000000
1.000000 0.193542 1.000000
0.967743 0.193542 1.000000
0.935486 0.193542 1.000000
0.903229 0.193542 1.000000
0.870972 0.193542 1.000000
0.838715 0.193542 1.000000
0.806458 0.193542 1.000000
0.774200 0.193542 1.000000
0.741943 0.193542 1.000000
0.709686 0.193542 1.000000
0.677429 0.193542 1.000000
0.645172 0.193542 1.000000
0.612915 0.193542 1.000000
0.580658 0.193542 1.000000
0.548401 0.193542 1.000000
0.516144 0.193542 1.000000
0.483856 0.193542 1.000000
0.451599 0.193542 1.000000
0.419342 0.193542 1.000000
0.387085 0.193542 1.000000
0.354828 0.193542 1.000000
0.322571 0.193542 1.000000
0.290314 0.193542 1.000000
0.258057 0.193542 1.000000
0.225800 0.193542 1.000000
0.193542 0.193542 1.000000
0.161285 0.193542 1.000000
0.129028 0.193542 1.000000
0.096771 0.193542 1.000000
0.064514 0.193542 1.000000
0.032257 0.193542 1.000000
0.000000 0.193542 1.000000
1.000000 0.161285 1.000000
0.967743 0.161285 1.000000
0.935486 0.161285 1.000000
0.903229 0.161285 1.000000
0.870972 0.161285 1.000000
0.838715 0.161285 1.000000
0.806458 0.161285 1.000000
0.774200 0.161285 1.000000
0.741943 0.161285 1.000000
0.709686 0.161285 1.000000
0.677429 0.161285 1.000000
0.645172 0.161285 1.000000
0.612915 0.161285 1.000000
0.580658 0.161285 1.000000
0.548401 0.161285 1.000000
0.516144 0.161285 1.000000
0.483856 0.161285 1.000000
0.451599 0.161285 1.000000
0.419342 0.161285 1.000000
0.387085 0.161285 1.000000
0.354828 0.161285 1.000000
0.322571 0.161285 1.000000
0.290314 0.161285 1.000000
0.258057 0.161285 1.000000
0.225800 0.161285 1.000000
0.193542 0.161285 1.000000
0.161285 0.161285 1.000000
0.129028 0.161285 1.000000
0.096771 0.161285 1.000000
0.064514 0.161285 1.000000
0.032257 0.161285 1.000000
0.000000 0.161285 1.000000
1.000000 0.129028 1.000000
0.967743 0.129028 1.000000
0.935486 0.129028 1.000000
0.903229 0.129028 1.000000
0.870972 0.129028 1.000000
0.838715 0.129028 1.000000
0.806458 0.129028 1.000000
0.774200 0.129028 1.000000
0.741943 0.129028 1.000000
0.709686 0.129028 1.000000
0.677429 0.129028 1.000000
0.645172 0.129028 1.000000
0.612915 0.129028 1.000000
0.580658 0.129028 1.000000
0.548401 0.129028 1.000000
0.516144 0.129028 1.000000
0.483856 0.129028 1.000000
0.451599 0.129028 1.000000
