res/luts/invert.CUBE
#Created by: Adobe Photoshop Export Color Lookup Plugin
TITLE "Untitled-1"
#LUT size
LUT_3D_SIZE 5
#data domain
#LUT data points
DOMAIN_MIN 0.000000 0.000000 0.000000
DOMAIN_MAX 0.903226 0.903226 0.903226
1.000000 1.000000 1.000000
0.774200 1.000000 1.000000
0.548401 1.000000 1.000000
0.322571 1.000000 1.000000
0.096771 1.000000 1.000000
1.000000 0.774200 1.000000
0.774200 0.774200 1.000000
0.548401 0.774200 1.000000
0.322571 0.774200 1.000000
0.096771 0.774200 1.000000
1.000000 0.548401 1.000000
0.774200 0.548401 1.000000
0.548401 0.548401 1.000000
0.322571 0.548401 1.000000
0.096771 0.548401 1.000000
1.000000 0.322571 1.000000
0.774200 0.322571 1.000000
0.548401 0.322571 1.000000
0.322571 0.322571 1.000000
0.096771 0.322571 1.000000
1.000000 0.096771 1.000000
0.774200 0.096771 1.000000
0.548401 0.096771 1.000000
0.322571 0.096771 1.000000
0.096771 0.096771 1.000000
1.000000 1.000000 0.774200
0.774200 1.000000 0.774200
0.548401 1.000000 0.774200
0.322571 1.000000 0.774200
0.096771 1.000000 0.774200
1.000000 0.774200 0.774200
0.774200 0.774200 0.774200
0.548401 0.774200 0.774200
0.322571 0.774200 0.774200
0.096771 0.774200 0.774200
1.000000 0.548401 0.774200
0.774200 0.548401 0.774200
0.548401 0.548401 0.774200
0.322571 0.548401 0.774200
0.096771 0.548401 0.774200
1.000000 0.322571 0.774200
0.774200 0.322571 0.774200
0.548401 0.322571 0.774200
0.322571 0.322571 0.774200
0.096771 0.322571 0.774200
1.000000 0.096771 0.774200
0.774200 0.096771 0.774200
0.548401 0.096771 0.774200
0.322571 0.096771 0.774200
0.096771 0.096771 0.774200
1.000000 1.000000 0.548401
0.774200 1.000000 0.548401
0.548401 1.000000 0.548401
0.322571 1.000000 0.548401
0.096771 1.000000 0.548401
1.000000 0.774200 0.548401
0.774200 0.774200 0.548401
0.548401 0.774200 0.548401
0.322571 0.774200 0.548401
0.096771 0.774200 0.548401
1.000000 0.548401 0.548401
0.774200 0.548401 0.548401
0.548401 0.548401 0.548401
0.322571 0.548401 0.548401
0.096771 0.548401 0.548401
1.000000 0.322571 0.548401
0.774200 0.322571 0.548401
0.548401 0.322571 0.548401
0.322571 0.322571 0.548401
0.096771 0.322571 0.548401
1.000000 0.096771 0.548401
0.774200 0.096771 0.548401
0.548401 0.096771 0.548401
0.322571 0.096771 0.548401
0.096771 0.096771 0.548401
1.000000 1.000000 0.322571
0.774200 1.000000 0.322571
0.548401 1.000000 0.322571
0.322571 1.000000 0.322571
0.096771 1.000000 0.322571
1.000000 0.774200 0.322571
0.774200 0.774200 0.322571
0.548401 0.774200 0.322571
0.322571 0.774200 0.322571
0.096771 0.774200 0.322571
1.000000 0.548401 0.322571
0.774200 0.548401 0.322571
0.548401 0.548401 0.322571
0.322571 0.548401 0.322571
0.096771 0.548401 0.322571
1.000000 0.322571 0.322571
0.774200 0.322571 0.322571
0.548401 0.322571 0.322571
0.322571 0.322571 0.322571
0.096771 0.322571 0.322571
1.000000 0.096771 0.322571
0.774200 0.096771 0.322571
0.548401 0.096771 0.322571
0.322571 0.096771 0.322571
0.096771 0.096771 0.322571
1.000000 1.000000 0.096771
0.774200 1.000000 0.096771
0.548401 1.000000 0.096771
0.322571 1.000000 0.096771
0.096771 1.000000 0.096771
1.000000 0.774200 0.096771
0.774200 0.774200 0.096771
0.548401 0.774200 0.096771
0.322571 0.774200 0.096771
0.096771 0.774200 0.096771
1.000000 0.548401 0.096771
0.774200 0.548401 0.096771
0.548401 0.548401 0.096771
0.322571 0.548401 0.096771
0.096771 0.548401 0.096771
1.000000 0.322571 0.096771
0.774200 0.322571 0.096771
0.548401 0.322571 0.096771
0.322571 0.322571 0.096771
0.096771 0.322571 0.096771
1.000000 0.096771 0.096771
0.774200 0.096771 0.096771
0.548401 0.096771 0.096771
0.322571 0.096771 0.096771
0.096771 0.096771 0.096771
