res/luts/invert.CUBE
#Created by: Adobe Photoshop Export Color Lookup Plugin
TITLE "Untitled-1"
#LUT size
LUT_3D_SIZE 8
#data domain
#LUT data points
DOMAIN_MIN 0.000000 0.000000 0.000000
DOMAIN_MAX 0.903226 0.903226 0.903226
1.000000 1.000000 1.000000
0.870972 1.000000 1.000000
0.741943 1.000000 1.000000
0.612915 1.000000 1.000000
0.483856 1.000000 1.000000
0.354828 1.000000 1.000000
0.225800 1.000000 1.000000
0.096771 1.000000 1.000000
1.000000 0.870972 1.000000
0.870972 0.870972 1.000000
0.741943 0.870972 1.000000
0.612915 0.870972 1.000000
0.483856 0.870972 1.000000
0.354828 0.870972 1.000000
0.225800 0.870972 1.000000
0.096771 0.870972 1.000000
1.000000 0.741943 1.000000
0.870972 0.741943 1.000000
0.741943 0.741943 1.000000
0.612915 0.741943 1.000000
0.483856 0.741943 1.000000
0.354828 0.741943 1.000000
0.225800 0.741943 1.000000
0.096771 0.741943 1.000000
1.000000 0.612915 1.000000
0.870972 0.612915 1.000000
0.741943 0.612915 1.000000
0.612915 0.612915 1.000000
0.483856 0.612915 1.000000
0.354828 0.612915 1.000000
0.225800 0.612915 1.000000
0.096771 0.612915 1.000000
1.000000 0.483856 1.000000
0.870972 0.483856 1.000000
0.741943 0.483856 1.000000
0.612915 0.483856 1.000000
0.483856 0.483856 1.000000
0.354828 0.483856 1.000000
0.225800 0.483856 1.000000
0.096771 0.483856 1.000000
1.000000 0.354828 1.000000
0.870972 0.354828 1.000000
0.741943 0.354828 1.000000
0.612915 0.354828 1.000000
0.483856 0.354828 1.000000
0.354828 0.354828 1.000000
0.225800 0.354828 1.000000
0.096771 0.354828 1.000000
1.000000 0.225800 1.000000
0.870972 0.225800 1.000000
0.741943 0.225800 1.000000
0.612915 0.225800 1.000000
0.483856 0.225800 1.000000
0.354828 0.225800 1.000000
0.225800 0.225800 1.000000
0.096771 0.225800 1.000000
1.000000 0.096771 1.000000
0.870972 0.096771 1.000000
0.741943 0.096771 1.000000
0.612915 0.096771 1.000000
0.483856 0.096771 1.000000
0.354828 0.096771 1.000000
0.225800 0.096771 1.000000
0.096771 0.096771 1.000000
1.000000 1.000000 0.870972
0.870972 1.000000 0.870972
0.741943 1.000000 0.870972
0.612915 1.000000 0.870972
0.483856 1.000000 0.870972
0.354828 1.000000 0.870972
0.225800 1.000000 0.870972
0.096771 1.000000 0.870972
1.000000 0.870972 0.870972
0.870972 0.870972 0.870972
0.741943 0.870972 0.870972
0.612915 0.870972 0.870972
0.483856 0.870972 0.870972
0.354828 0.870972 0.870972
0.225800 0.870972 0.870972
0.096771 0.870972 0.870972
1.000000 0.741943 0.870972
0.870972 0.741943 0.870972
0.741943 0.741943 0.870972
0.612915 0.741943 0.870972
0.483856 0.741943 0.870972
0.354828 0.741943 0.870972
0.225800 0.741943 0.870972
0.096771 0.741943 0.870972
1.000000 0.612915 0.870972
0.870972 0.612915 0.870972
0.741943 0.612915 0.870972
0.612915 0.612915 0.870972
0.483856 0.612915 0.870972
0.354828 0.612915 0.870972
0.225800 0.612915 0.870972
0.096771 0.612915 0.870972
1.000000 0.483856 0.870972
0.870972 0.483856 0.870972
0.741943 0.483856 0.870972
0.612915 0.483856 0.870972
0.483856 0.483856 0.870972
0.354828 0.483856 0.870972
0.225800 0.483856 0.870972
0.096771 0.483856 0.870972
1.000000 0.354828 0.870972
0.870972 0.354828 0.870972
0.741943 0.354828 0.870972
0.612915 0.354828 0.870972
0.483856 0.354828 0.870972
0.354828 0.354828 0.870972
0.225800 0.354828 0.870972
0.096771 0.354828 0.870972
1.000000 0.225800 0.870972
0.870972 0.225800 0.870972
0.741943 0.225800 0.870972
0.612915 0.225800 0.870972
0.483856 0.225800 0.870972
0.354828 0.225800 0.870972
0.225800 0.225800 0.870972
0.096771 0.225800 0.870972
1.000000 0.096771 0.870972
0.870972 0.096771 0.870972
0.741943 0.096771 0.870972
0.612915 0.096771 0.870972
0.483856 0.096771 0.870972
0.354828 0.096771 0.870972
0.225800 0.096771 0.870972
0.096771 0.096771 0.870972
1.000000 1.000000 0.741943
0.870972 1.000000 0.741943
0.741943 1.000000 0.741943
0.612915 1.000000 0.741943
0.483856 1.000000 0.741943
0.354828 1.000000 0.741943
0.225800 1.000000 0.741943
0.096771 1.000000 0.741943
1.000000 0.870972 0.741943
0.870972 0.870972 0.741943
0.741943 0.870972 0.741943
0.612915 0.870972 0.741943
0.483856 0.870972 0.741943
0.354828 0.870972 0.741943
0.225800 0.870972 0.741943
0.096771 0.870972 0.741943
1.000000 0.741943 0.741943
0.870972 0.741943 0.741943
0.741943 0.741943 0.741943
0.612915 0.741943 0.741943
0.483856 0.741943 0.741943
0.354828 0.741943 0.741943
0.225800 0.741943 0.741943
0.096771 0.741943 0.741943
1.000000 0.612915 0.741943
0.870972 0.612915 0.741943
0.741943 0.612915 0.741943
0.612915 0.612915 0.741943
0.483856 0.612915 0.741943
0.354828 0.612915 0.741943
0.225800 0.612915 0.741943
0.096771 0.612915 0.741943
1.000000 0.483856 0.741943
0.870972 0.483856 0.741943
0.741943 0.483856 0.741943
0.612915 0.483856 0.741943
0.483856 0.483856 0.741943
0.354828 0.483856 0.741943
0.225800 0.483856 0.741943
0.096771 0.483856 0.741943
1.000000 0.354828 0.741943
0.870972 0.354828 0.741943
0.741943 0.354828 0.741943
0.612915 0.354828 0.741943
0.483856 0.354828 0.741943
0.354828 0.354828 0.741943
0.225800 0.354828 0.741943
0.096771 0.354828 0.741943
1.000000 0.225800 0.741943
0.870972 0.225800 0.741943
0.741943 0.225800 0.741943
0.612915 0.225800 0.741943
0.483856 0.225800 0.741943
0.354828 0.225800 0.741943
0.225800 0.225800 0.741943
0.096771 0.225800 0.741943
1.000000 0.096771 0.741943
0.870972 0.096771 0.741943
0.741943 0.096771 0.741943
0.612915 0.096771 0.741943
0.483856 0.096771 0.741943
0.354828 0.096771 0.741943
0.225800 0.096771 0.741943
0.096771 0.096771 0.741943
1.000000 1.000000 0.612915
0.870972 1.000000 0.612915
0.741943 1.000000 0.612915
0.612915 1.000000 0.612915
0.483856 1.000000 0.612915
0.354828 1.000000 0.612915
0.225800 1.000000 0.612915
0.096771 1.000000 0.612915
1.000000 0.870972 0.612915
0.870972 0.870972 0.612915
0.741943 0.870972 0.612915
0.612915 0.870972 0.612915
0.483856 0.870972 0.612915
0.354828 0.870972 0.612915
0.225800 0.870972 0.612915
0.096771 0.870972 0.612915
1.000000 0.741943 0.612915
0.870972 0.741943 0.612915
0.741943 0.741943 0.612915
0.612915 0.741943 0.612915
0.483856 0.741943 0.612915
0.354828 0.741943 0.612915
0.225800 0.741943 0.612915
0.096771 0.741943 0.612915
1.000000 0.612915 0.612915
0.870972 0.612915 0.612915
0.741943 0.612915 0.612915
0.612915 0.612915 0.612915
0.483856 0.612915 0.612915
0.354828 0.612915 0.612915
0.225800 0.612915 0.612915
0.096771 0.612915 0.612915
1.000000 0.483856 0.612915
0.870972 0.483856 0.612915
0.741943 0.483856 0.612915
0.612915 0.483856 0.612915
0.483856 0.483856 0.612915
0.354828 0.483856 0.612915
0.225800 0.483856 0.612915
0.096771 0.483856 0.612915
1.000000 0.354828 0.612915
0.870972 0.354828 0.612915
0.741943 0.354828 0.612915
0.612915 0.354828 0.612915
0.483856 0.354828 0.612915
0.354828 0.354828 0.612915
0.225800 0.354828 0.612915
0.096771 0.354828 0.612915
1.000000 0.225800 0.612915
0.870972 0.225800 0.612915
0.741943 0.225800 0.612915
0.612915 0.225800 0.612915
0.483856 0.225800 0.612915
0.354828 0.225800 0.612915
0.225800 0.225800 0.612915
0.096771 0.225800 0.612915
1.000000 0.096771 0.612915
0.870972 0.096771 0.612915
0.741943 0.096771 0.612915
0.612915 0.096771 0.612915
0.483856 0.096771 0.612915
0.354828 0.096771 0.612915
0.225800 0.096771 0.612915
0.096771 0.096771 0.612915
1.000000 1.000000 0.483856
0.870972 1.000000 0.483856
0.741943 1.000000 0.483856
0.612915 1.000000 0.483856
0.483856 1.000000 0.483856
0.354828 1.000000 0.483856
0.225800 1.000000 0.483856
0.096771 1.000000 0.483856
1.000000 0.870972 0.483856
0.870972 0.870972 0.483856
0.741943 0.870972 0.483856
0.612915 0.870972 0.483856
0.483856 0.870972 0.483856
0.354828 0.870972 0.483856
0.225800 0.870972 0.483856
0.096771 0.870972 0.483856
1.000000 0.741943 0.483856
0.870972 0.741943 0.483856
0.741943 0.741943 0.483856
0.612915 0.741943 0.483856
0.483856 0.741943 0.483856
0.354828 0.741943 0.483856
0.225800 0.741943 0.483856
0.096771 0.741943 0.483856
1.000000 0.612915 0.483856
0.870972 0.612915 0.483856
0.741943 0.612915 0.483856
0.612915 0.612915 0.483856
0.483856 0.612915 0.483856
0.354828 0.612915 0.483856
0.225800 0.612915 0.483856
0.096771 0.612915 0.483856
1.000000 0.483856 0.483856
0.870972 0.483856 0.483856
0.741943 0.483856 0.483856
0.612915 0.483856 0.483856
0.483856 0.483856 0.483856
0.354828 0.483856 0.483856
0.225800 0.483856 0.483856
0.096771 0.483856 0.483856
1.000000 0.354828 0.483856
0.870972 0.354828 0.483856
0.741943 0.354828 0.483856
0.612915 0.354828 0.483856
0.483856 0.354828 0.483856
0.354828 0.354828 0.483856
0.225800 0.354828 0.483856
0.096771 0.354828 0.483856
1.000000 0.225800 0.483856
0.870972 0.225800 0.483856
0.741943 0.225800 0.483856
0.612915 0.225800 0.483856
0.483856 0.225800 0.483856
0.354828 0.225800 0.483856
0.225800 0.225800 0.483856
0.096771 0.225800 0.483856
1.000000 0.096771 0.483856
0.870972 0.096771 0.483856
0.741943 0.096771 0.483856
0.612915 0.096771 0.483856
0.483856 0.096771 0.483856
0.354828 0.096771 0.483856
0.225800 0.096771 0.483856
0.096771 0.096771 0.483856
1.000000 1.000000 0.354828
0.870972 1.000000 0.354828
0.741943 1.000000 0.354828
0.612915 1.000000 0.354828
0.483856 1.000000 0.354828
0.354828 1.000000 0.354828
0.225800 1.000000 0.354828
0.096771 1.000000 0.354828
1.000000 0.870972 0.354828
0.870972 0.870972 0.354828
0.741943 0.870972 0.354828
0.612915 0.870972 0.354828
0.483856 0.870972 0.354828
0.354828 0.870972 0.354828
0.225800 0.870972 0.354828
0.096771 0.870972 0.354828
1.000000 0.741943 0.354828
0.870972 0.741943 0.354828
0.741943 0.741943 0.354828
0.612915 0.741943 0.354828
0.483856 0.741943 0.354828
0.354828 0.741943 0.354828
0.225800 0.741943 0.354828
0.096771 0.741943 0.354828
1.000000 0.612915 0.354828
0.870972 0.612915 0.354828
0.741943 0.612915 0.354828
0.612915 0.612915 0.354828
0.483856 0.612915 0.354828
0.354828 0.612915 0.354828
0.225800 0.612915 0.354828
0.096771 0.612915 0.354828
1.000000 0.483856 0.354828
0.870972 0.483856 0.354828
0.741943 0.483856 0.354828
0.612915 0.483856 0.354828
0.483856 0.483856 0.354828
0.354828 0.483856 0.354828
0.225800 0.483856 0.354828
0.096771 0.483856 0.354828
1.000000 0.354828 0.354828
0.870972 0.354828 0.354828
0.741943 0.354828 0.354828
0.612915 0.354828 0.354828
0.483856 0.354828 0.354828
0.354828 0.354828 0.354828
0.225800 0.354828 0.354828
0.096771 0.354828 0.354828
1.000000 0.225800 0.354828
0.870972 0.225800 0.354828
0.741943 0.225800 0.354828
0.612915 0.225800 0.354828
0.483856 0.225800 0.354828
0.354828 0.225800 0.354828
0.225800 0.225800 0.354828
0.096771 0.225800 0.354828
1.000000 0.096771 0.354828
0.870972 0.096771 0.354828
0.741943 0.096771 0.354828
0.612915 0.096771 0.354828
0.483856 0.096771 0.354828
0.354828 0.096771 0.354828
0.225800 0.096771 0.354828
0.096771 0.096771 0.354828
1.000000 1.000000 0.225800
0.870972 1.000000 0.225800
0.741943 1.000000 0.225800
0.612915 1.000000 0.225800
0.483856 1.000000 0.225800
0.354828 1.000000 0.225800
0.225800 1.000000 0.225800
0.096771 1.000000 0.225800
1.000000 0.870972 0.225800
0.870972 0.870972 0.225800
0.741943 0.870972 0.225800
0.612915 0.870972 0.225800
0.483856 0.870972 0.225800
0.354828 0.870972 0.225800
0.225800 0.870972 0.225800
0.096771 0.870972 0.225800
1.000000 0.741943 0.225800
0.870972 0.741943 0.225800
0.741943 0.741943 0.225800
0.612915 0.741943 0.225800
0.483856 0.741943 0.225800
0.354828 0.741943 0.225800
0.225800 0.741943 0.225800
0.096771 0.741943 0.225800
1.000000 0.612915 0.225800
0.870972 0.612915 0.225800
0.741943 0.612915 0.225800
0.612915 0.612915 0.225800
0.483856 0.612915 0.225800
0.354828 0.612915 0.225800
0.225800 0.612915 0.225800
0.096771 0.612915 0.225800
1.000000 0.483856 0.225800
0.870972 0.483856 0.225800
0.741943 0.483856 0.225800
0.612915 0.483856 0.225800
0.483856 0.483856 0.225800
0.354828 0.483856 0.225800
0.225800 0.483856 0.225800
0.096771 0.483856 0.225800
1.000000 0.354828 0.225800
0.870972 0.354828 0.225800
0.741943 0.354828 0.225800
0.612915 0.354828 0.225800
0.483856 0.354828 0.225800
0.354828 0.354828 0.225800
0.225800 0.354828 0.225800
0.096771 0.354828 0.225800
1.000000 0.225800 0.225800
0.870972 0.225800 0.225800
0.741943 0.225800 0.225800
0.612915 0.225800 0.225800
0.483856 0.225800 0.225800
0.354828 0.225800 0.225800
0.225800 0.225800 0.225800
0.096771 0.225800 0.225800
1.000000 0.096771 0.225800
0.870972 0.096771 0.225800
0.741943 0.096771 0.225800
0.612915 0.096771 0.225800
0.483856 0.096771 0.225800
0.354828 0.096771 0.225800
0.225800 0.096771 0.225800
0.096771 0.096771 0.225800
1.000000 1.000000 0.096771
0.870972 1.000000 0.096771
0.741943 1.000000 0.096771
0.612915 1.000000 0.096771
0.483856 1.000000 0.096771
0.354828 1.000000 0.096771
0.225800 1.000000 0.096771
0.096771 1.000000 0.096771
1.000000 0.870972 0.096771
0.870972 0.870972 0.096771
0.741943 0.870972 0.096771
0.612915 0.870972 0.096771
0.483856 0.870972 0.096771
0.354828 0.870972 0.096771
0.225800 0.870972 0.096771
0.096771 0.870972 0.096771
1.000000 0.741943 0.096771
0.870972 0.741943 0.096771
0.741943 0.741943 0.096771
0.612915 0.741943 0.096771
0.483856 0.741943 0.096771
0.354828 0.741943 0.096771
0.225800 0.741943 0.096771
0.096771 0.741943 0.096771
1.000000 0.612915 0.096771
0.870972 0.612915 0.096771
0.741943 0.612915 0.096771
0.612915 0.612915 0.096771
0.483856 0.612915 0.096771
0.354828 0.612915 0.096771
0.225800 0.612915 0.096771
0.096771 0.612915 0.096771
1.000000 0.483856 0.096771
0.870972 0.483856 0.096771
0.741943 0.483856 0.096771
0.612915 0.483856 0.096771
0.483856 0.483856 0.096771
0.354828 0.483856 0.096771
0.225800 0.483856 0.096771
0.096771 0.483856 0.096771
1.000000 0.354828 0.096771
0.870972 0.354828 0.096771
0.741943 0.354828 0.096771
0.612915 0.354828 0.096771
0.483856 0.354828 0.096771
0.354828 0.354828 0.096771
0.225800 0.354828 0.096771
0.096771 0.354828 0.096771
1.000000 0.225800 0.096771
0.870972 0.225800 0.096771
0.741943 0.225800 0.096771
0.612915 0.225800 0.096771
0.483856 0.225800 0.096771
0.354828 0.225800 0.096771
0.225800 0.225800 0.096771
0.096771 0.225800 0.096771
1.000000 0.096771 0.096771
0.870972 0.096771 0.096771
0.741943 0.096771 0.096771
0.612915 0.096771 0.096771
0.483856 0.096771 0.096771
0.354828 0.096771 0.096771
0.225800 0.096771 0.096771
0.096771 0.096771 0.096771
