res/luts/Warmer.CUBE
#Created by: Adobe Photoshop Export Color Lookup Plugin
TITLE "Untitled-1"
#LUT size
LUT_3D_SIZE 32
#data domain
DOMAIN_MIN 0.0 0.0 0.0
DOMAIN_MAX 1.0 1.0 1.0
#LUT data points
0.000000 0.000000 0.000000
0.069550 0.000000 0.000000
0.119476 0.000000 0.000000
0.163605 0.000000 0.000000
0.204468 0.000000 0.000000
0.243073 0.000000 0.000000
0.279968 0.000000 0.000000
0.315521 0.000000 0.000000
0.349915 0.000000 0.000000
0.383362 0.000000 0.000000
0.415985 0.000000 0.000000
0.447906 0.000000 0.000000
0.479156 0.000000 0.000000
0.509827 0.000000 0.000000
0.539948 0.000000 0.000000
0.569641 0.000000 0.000000
0.598877 0.000000 0.000000
0.627716 0.000000 0.000000
0.656158 0.000000 0.000000
0.684235 0.000000 0.000000
0.711975 0.000000 0.000000
0.739410 0.000000 0.000000
0.766571 0.000000 0.000000
0.793427 0.000000 0.000000
0.820068 0.000000 0.000000
0.846436 0.000000 0.000000
0.872528 0.000000 0.000000
0.898438 0.000000 0.000000
0.924133 0.000000 0.000000
0.949615 0.000000 0.000000
0.974884 0.000000 0.000000
1.000000 0.000000 0.000000
0.000000 0.022980 0.000000
0.069550 0.022980 0.000000
0.119476 0.022980 0.000000
0.163605 0.022980 0.000000
0.204468 0.022980 0.000000
0.243073 0.022980 0.000000
0.279968 0.022980 0.000000
0.315521 0.022980 0.000000
0.349915 0.022980 0.000000
0.383362 0.022980 0.000000
0.415985 0.022980 0.000000
0.447906 0.022980 0.000000
0.479156 0.022980 0.000000
0.509827 0.022980 0.000000
0.539948 0.022980 0.000000
0.569641 0.022980 0.000000
0.598877 0.022980 0.000000
0.627716 0.022980 0.000000
0.656158 0.022980 0.000000
0.684235 0.022980 0.000000
0.711975 0.022980 0.000000
0.739410 0.022980 0.000000
0.766571 0.022980 0.000000
0.793427 0.022980 0.000000
0.820068 0.022980 0.000000
0.846436 0.022980 0.000000
0.872528 0.022980 0.000000
0.898438 0.022980 0.000000
0.924133 0.022980 0.000000
0.949615 0.022980 0.000000
0.974884 0.022980 0.000000
1.000000 0.022980 0.000000
0.000000 0.049194 0.000000
0.069550 0.049194 0.000000
0.119476 0.049194 0.000000
0.163605 0.049194 0.000000
0.204468 0.049194 0.000000
0.243073 0.049194 0.000000
0.279968 0.049194 0.000000
0.315521 0.049194 0.000000
0.349915 0.049194 0.000000
0.383362 0.049194 0.000000
0.415985 0.049194 0.000000
0.447906 0.049194 0.000000
0.479156 0.049194 0.000000
0.509827 0.049194 0.000000
0.539948 0.049194 0.000000
0.569641 0.049194 0.000000
0.598877 0.049194 0.000000
0.627716 0.049194 0.000000
0.656158 0.049194 0.000000
0.684235 0.049194 0.000000
0.711975 0.049194 0.000000
0.739410 0.049194 0.000000
0.766571 0.049194 0.000000
0.793427 0.049194 0.000000
0.820068 0.049194 0.000000
0.846436 0.049194 0.000000
0.872528 0.049194 0.000000
0.898438 0.049194 0.000000
0.924133 0.049194 0.000000
0.949615 0.049194 0.000000
0.974884 0.049194 0.000000
1.000000 0.049194 0.000000
0.000000 0.076813 0.000000
0.069550 0.076813 0.000000
0.119476 0.076813 0.000000
0.163605 0.076813 0.000000
0.204468 0.076813 0.000000
0.243073 0.076813 0.000000
0.279968 0.076813 0.000000
0.315521 0.076813 0.000000
0.349915 0.076813 0.000000
0.383362 0.076813 0.000000
0.415985 0.076813 0.000000
0.447906 0.076813 0.000000
0.479156 0.076813 0.000000
0.509827 0.076813 0.000000
0.539948 0.076813 0.000000
0.569641 0.076813 0.000000
0.598877 0.076813 0.000000
0.627716 0.076813 0.000000
0.656158 0.076813 0.000000
0.684235 0.076813 0.000000
0.711975 0.076813 0.000000
0.739410 0.076813 0.000000
0.766571 0.076813 0.000000
0.793427 0.076813 0.000000
0.820068 0.076813 0.000000
0.846436 0.076813 0.000000
0.872528 0.076813 0.000000
0.898438 0.076813 0.000000
0.924133 0.076813 0.000000
0.949615 0.076813 0.000000
0.974884 0.076813 0.000000
1.000000 0.076813 0.000000
0.000000 0.105377 0.000000
0.069550 0.105377 0.000000
0.119476 0.105377 0.000000
0.163605 0.105377 0.000000
0.204468 0.105377 0.000000
0.243073 0.105377 0.000000
0.279968 0.105377 0.000000
0.315521 0.105377 0.000000
0.349915 0.105377 0.000000
0.383362 0.105377 0.000000
0.415985 0.105377 0.000000
0.447906 0.105377 0.000000
0.479156 0.105377 0.000000
0.509827 0.105377 0.000000
0.539948 0.105377 0.000000
0.569641 0.105377 0.000000
0.598877 0.105377 0.000000
0.627716 0.105377 0.000000
0.656158 0.105377 0.000000
0.684235 0.105377 0.000000
0.711975 0.105377 0.000000
0.739410 0.105377 0.000000
0.766571 0.105377 0.000000
0.793427 0.105377 0.000000
0.820068 0.105377 0.000000
0.846436 0.105377 0.000000
0.872528 0.105377 0.000000
0.898438 0.105377 0.000000
0.924133 0.105377 0.000000
0.949615 0.105377 0.000000
0.974884 0.105377 0.000000
1.000000 0.105377 0.000000
0.000000 0.134644 0.000000
0.069550 0.134644 0.000000
0.119476 0.134644 0.000000
0.163605 0.134644 0.000000
0.204468 0.134644 0.000000
0.243073 0.134644 0.000000
0.279968 0.134644 0.000000
0.315521 0.134644 0.000000
0.349915 0.134644 0.000000
0.383362 0.134644 0.000000
0.415985 0.134644 0.000000
0.447906 0.134644 0.000000
0.479156 0.134644 0.000000
0.509827 0.134644 0.000000
0.539948 0.134644 0.000000
0.569641 0.134644 0.000000
0.598877 0.134644 0.000000
0.627716 0.134644 0.000000
0.656158 0.134644 0.000000
0.684235 0.134644 0.000000
0.711975 0.134644 0.000000
0.739410 0.134644 0.000000
0.766571 0.134644 0.000000
0.793427 0.134644 0.000000
0.820068 0.134644 0.000000
0.846436 0.134644 0.000000
0.872528 0.134644 0.000000
0.898438 0.134644 0.000000
0.924133 0.134644 0.000000
0.949615 0.134644 0.000000
0.974884 0.134644 0.000000
1.000000 0.134644 0.000000
0.000000 0.164520 0.000000
0.069550 0.164520 0.000000
0.119476 0.164520 0.000000
0.163605 0.164520 0.000000
0.204468 0.164520 0.000000
0.243073 0.164520 0.000000
0.279968 0.164520 0.000000
0.315521 0.164520 0.000000
0.349915 0.164520 0.000000
0.383362 0.164520 0.000000
0.415985 0.164520 0.000000
0.447906 0.164520 0.000000
0.479156 0.164520 0.000000
0.509827 0.164520 0.000000
0.539948 0.164520 0.000000
0.569641 0.164520 0.000000
0.598877 0.164520 0.000000
0.627716 0.164520 0.000000
0.656158 0.164520 0.000000
0.684235 0.164520 0.000000
0.711975 0.164520 0.000000
0.739410 0.164520 0.000000
0.766571 0.164520 0.000000
0.793427 0.164520 0.000000
0.820068 0.164520 0.000000
0.846436 0.164520 0.000000
0.872528 0.164520 0.000000
0.898438 0.164520 0.000000
0.924133 0.164520 0.000000
0.949615 0.164520 0.000000
0.974884 0.164520 0.000000
1.000000 0.164520 0.000000
0.000000 0.194885 0.000000
0.069550 0.194885 0.000000
0.119476 0.194885 0.000000
0.163605 0.194885 0.000000
0.204468 0.194885 0.000000
0.243073 0.194885 0.000000
0.279968 0.194885 0.000000
0.315521 0.194885 0.000000
0.349915 0.194885 0.000000
0.383362 0.194885 0.000000
0.415985 0.194885 0.000000
0.447906 0.194885 0.000000
0.479156 0.194885 0.000000
0.509827 0.194885 0.000000
0.539948 0.194885 0.000000
0.569641 0.194885 0.000000
0.598877 0.194885 0.000000
0.627716 0.194885 0.000000
0.656158 0.194885 0.000000
0.684235 0.194885 0.000000
0.711975 0.194885 0.000000
0.739410 0.194885 0.000000
0.766571 0.194885 0.000000
0.793427 0.194885 0.000000
0.820068 0.194885 0.000000
0.846436 0.194885 0.000000
0.872528 0.194885 0.000000
0.898438 0.194885 0.000000
0.924133 0.194885 0.000000
0.949615 0.194885 0.000000
0.974884 0.194885 0.000000
1.000000 0.194885 0.000000
0.000000 0.225708 0.000000
0.069550 0.225708 0.000000
0.119476 0.225708 0.000000
0.163605 0.225708 0.000000
0.204468 0.225708 0.000000
0.243073 0.225708 0.000000
0.279968 0.225708 0.000000
0.315521 0.225708 0.000000
0.349915 0.225708 0.000000
0.383362 0.225708 0.000000
0.415985 0.225708 0.000000
0.447906 0.225708 0.000000
0.479156 0.225708 0.000000
0.509827 0.225708 0.000000
0.539948 0.225708 0.000000
0.569641 0.225708 0.000000
0.598877 0.225708 0.000000
0.627716 0.225708 0.000000
0.656158 0.225708 0.000000
0.684235 0.225708 0.000000
0.711975 0.225708 0.000000
0.739410 0.225708 0.000000
0.766571 0.225708 0.000000
0.793427 0.225708 0.000000
0.820068 0.225708 0.000000
0.846436 0.225708 0.000000
0.872528 0.225708 0.000000
0.898438 0.225708 0.000000
0.924133 0.225708 0.000000
0.949615 0.225708 0.000000
0.974884 0.225708 0.000000
1.000000 0.225708 0.000000
0.000000 0.256897 0.000000
0.069550 0.256897 0.000000
0.119476 0.256897 0.000000
0.163605 0.256897 0.000000
0.204468 0.256897 0.000000
0.243073 0.256897 0.000000
0.279968 0.256897 0.000000
0.315521 0.256897 0.000000
0.349915 0.256897 0.000000
0.383362 0.256897 0.000000
0.415985 0.256897 0.000000
0.447906 0.256897 0.000000
0.479156 0.256897 0.000000
0.509827 0.256897 0.000000
0.539948 0.256897 0.000000
0.569641 0.256897 0.000000
0.598877 0.256897 0.000000
0.627716 0.256897 0.000000
0.656158 0.256897 0.000000
0.684235 0.256897 0.000000
0.711975 0.256897 0.000000
0.739410 0.256897 0.000000
0.766571 0.256897 0.000000
0.793427 0.256897 0.000000
0.820068 0.256897 0.000000
0.846436 0.256897 0.000000
0.872528 0.256897 0.000000
0.898438 0.256897 0.000000
0.924133 0.256897 0.000000
0.949615 0.256897 0.000000
0.974884 0.256897 0.000000
1.000000 0.256897 0.000000
0.000000 0.288422 0.000000
0.069550 0.288422 0.000000
0.119476 0.288422 0.000000
0.163605 0.288422 0.000000
0.204468 0.288422 0.000000
0.243073 0.288422 0.000000
0.279968 0.288422 0.000000
0.315521 0.288422 0.000000
0.349915 0.288422 0.000000
0.383362 0.288422 0.000000
0.415985 0.288422 0.000000
0.447906 0.288422 0.000000
0.479156 0.288422 0.000000
0.509827 0.288422 0.000000
0.539948 0.288422 0.000000
0.569641 0.288422 0.000000
0.598877 0.288422 0.000000
0.627716 0.288422 0.000000
0.656158 0.288422 0.000000
0.684235 0.288422 0.000000
0.711975 0.288422 0.000000
0.739410 0.288422 0.000000
0.766571 0.288422 0.000000
0.793427 0.288422 0.000000
0.820068 0.288422 0.000000
0.846436 0.288422 0.000000
0.872528 0.288422 0.000000
0.898438 0.288422 0.000000
0.924133 0.288422 0.000000
0.949615 0.288422 0.000000
0.974884 0.288422 0.000000
1.000000 0.288422 0.000000
0.000000 0.320282 0.000000
0.069550 0.320282 0.000000
0.119476 0.320282 0.000000
0.163605 0.320282 0.000000
0.204468 0.320282 0.000000
0.243073 0.320282 0.000000
0.279968 0.320282 0.000000
0.315521 0.320282 0.000000
0.349915 0.320282 0.000000
0.383362 0.320282 0.000000
0.415985 0.320282 0.000000
0.447906 0.320282 0.000000
0.479156 0.320282 0.000000
0.509827 0.320282 0.000000
0.539948 0.320282 0.000000
0.569641 0.320282 0.000000
0.598877 0.320282 0.000000
0.627716 0.320282 0.000000
0.656158 0.320282 0.000000
0.684235 0.320282 0.000000
0.711975 0.320282 0.000000
0.739410 0.320282 0.000000
0.766571 0.320282 0.000000
0.793427 0.320282 0.000000
0.820068 0.320282 0.000000
0.846436 0.320282 0.000000
0.872528 0.320282 0.000000
0.898438 0.320282 0.000000
0.924133 0.320282 0.000000
0.949615 0.320282 0.000000
0.974884 0.320282 0.000000
1.000000 0.320282 0.000000
0.000000 0.352417 0.000000
0.069550 0.352417 0.000000
0.119476 0.352417 0.000000
0.163605 0.352417 0.000000
0.204468 0.352417 0.000000
0.243073 0.352417 0.000000
0.279968 0.352417 0.000000
0.315521 0.352417 0.000000
0.349915 0.352417 0.000000
0.383362 0.352417 0.000000
0.415985 0.352417 0.000000
0.447906 0.352417 0.000000
0.479156 0.352417 0.000000
0.509827 0.352417 0.000000
0.539948 0.352417 0.000000
0.569641 0.352417 0.000000
0.598877 0.352417 0.000000
0.627716 0.352417 0.000000
0.656158 0.352417 0.000000
0.684235 0.352417 0.000000
0.711975 0.352417 0.000000
0.739410 0.352417 0.000000
0.766571 0.352417 0.000000
0.793427 0.352417 0.000000
0.820068 0.352417 0.000000
0.846436 0.352417 0.000000
0.872528 0.352417 0.000000
0.898438 0.352417 0.000000
0.924133 0.352417 0.000000
0.949615 0.352417 0.000000
0.974884 0.352417 0.000000
1.000000 0.352417 0.000000
0.000000 0.384796 0.000000
0.069550 0.384796 0.000000
0.119476 0.384796 0.000000
0.163605 0.384796 0.000000
0.204468 0.384796 0.000000
0.243073 0.384796 0.000000
0.279968 0.384796 0.000000
0.315521 0.384796 0.000000
0.349915 0.384796 0.000000
0.383362 0.384796 0.000000
0.415985 0.384796 0.000000
0.447906 0.384796 0.000000
0.479156 0.384796 0.000000
0.509827 0.384796 0.000000
0.539948 0.384796 0.000000
0.569641 0.384796 0.000000
0.598877 0.384796 0.000000
0.627716 0.384796 0.000000
0.656158 0.384796 0.000000
0.684235 0.384796 0.000000
0.711975 0.384796 0.000000
0.739410 0.384796 0.000000
0.766571 0.384796 0.000000
0.793427 0.384796 0.000000
0.820068 0.384796 0.000000
0.846436 0.384796 0.000000
0.872528 0.384796 0.000000
0.898438 0.384796 0.000000
0.924133 0.384796 0.000000
0.949615 0.384796 0.000000
0.974884 0.384796 0.000000
1.000000 0.384796 0.000000
0.000000 0.417450 0.000000
0.069550 0.417450 0.000000
0.119476 0.417450 0.000000
0.163605 0.417450 0.000000
0.204468 0.417450 0.000000
0.243073 0.417450 0.000000
0.279968 0.417450 0.000000
0.315521 0.417450 0.000000
0.349915 0.417450 0.000000
0.383362 0.417450 0.000000
0.415985 0.417450 0.000000
0.447906 0.417450 0.000000
0.479156 0.417450 0.000000
0.509827 0.417450 0.000000
0.539948 0.417450 0.000000
0.569641 0.417450 0.000000
0.598877 0.417450 0.000000
0.627716 0.417450 0.000000
0.656158 0.417450 0.000000
0.684235 0.417450 0.000000
0.711975 0.417450 0.000000
0.739410 0.417450 0.000000
0.766571 0.417450 0.000000
0.793427 0.417450 0.000000
0.820068 0.417450 0.000000
0.846436 0.417450 0.000000
0.872528 0.417450 0.000000
0.898438 0.417450 0.000000
0.924133 0.417450 0.000000
0.949615 0.417450 0.000000
0.974884 0.417450 0.000000
1.000000 0.417450 0.000000
0.000000 0.450348 0.000000
0.069550 0.450348 0.000000
0.119476 0.450348 0.000000
0.163605 0.450348 0.000000
0.204468 0.450348 0.000000
0.243073 0.450348 0.000000
0.279968 0.450348 0.000000
0.315521 0.450348 0.000000
0.349915 0.450348 0.000000
0.383362 0.450348 0.000000
0.415985 0.450348 0.000000
0.447906 0.450348 0.000000
0.479156 0.450348 0.000000
0.509827 0.450348 0.000000
0.539948 0.450348 0.000000
0.569641 0.450348 0.000000
0.598877 0.450348 0.000000
0.627716 0.450348 0.000000
0.656158 0.450348 0.000000
0.684235 0.450348 0.000000
0.711975 0.450348 0.000000
0.739410 0.450348 0.000000
0.766571 0.450348 0.000000
0.793427 0.450348 0.000000
0.820068 0.450348 0.000000
0.846436 0.450348 0.000000
0.872528 0.450348 0.000000
0.898438 0.450348 0.000000
0.924133 0.450348 0.000000
0.949615 0.450348 0.000000
0.974884 0.450348 0.000000
1.000000 0.450348 0.000000
0.000000 0.483459 0.000000
0.069550 0.483459 0.000000
0.119476 0.483459 0.000000
0.163605 0.483459 0.000000
0.204468 0.483459 0.000000
0.243073 0.483459 0.000000
0.279968 0.483459 0.000000
0.315521 0.483459 0.000000
0.349915 0.483459 0.000000
0.383362 0.483459 0.000000
0.415985 0.483459 0.000000
0.447906 0.483459 0.000000
0.479156 0.483459 0.000000
0.509827 0.483459 0.000000
0.539948 0.483459 0.000000
0.569641 0.483459 0.000000
0.598877 0.483459 0.000000
0.627716 0.483459 0.000000
0.656158 0.483459 0.000000
0.684235 0.483459 0.000000
0.711975 0.483459 0.000000
0.739410 0.483459 0.000000
0.766571 0.483459 0.000000
0.793427 0.483459 0.000000
0.820068 0.483459 0.000000
0.846436 0.483459 0.000000
0.872528 0.483459 0.000000
0.898438 0.483459 0.000000
0.924133 0.483459 0.000000
0.949615 0.483459 0.000000
0.974884 0.483459 0.000000
1.000000 0.483459 0.000000
0.000000 0.516754 0.000000
0.069550 0.516754 0.000000
0.119476 0.516754 0.000000
0.163605 0.516754 0.000000
0.204468 0.516754 0.000000
0.243073 0.516754 0.000000
0.279968 0.516754 0.000000
0.315521 0.516754 0.000000
0.349915 0.516754 0.000000
0.383362 0.516754 0.000000
0.415985 0.516754 0.000000
0.447906 0.516754 0.000000
0.479156 0.516754 0.000000
0.509827 0.516754 0.000000
0.539948 0.516754 0.000000
0.569641 0.516754 0.000000
0.598877 0.516754 0.000000
0.627716 0.516754 0.000000
0.656158 0.516754 0.000000
0.684235 0.516754 0.000000
0.711975 0.516754 0.000000
0.739410 0.516754 0.000000
0.766571 0.516754 0.000000
0.793427 0.516754 0.000000
0.820068 0.516754 0.000000
0.846436 0.516754 0.000000
0.872528 0.516754 0.000000
0.898438 0.516754 0.000000
0.924133 0.516754 0.000000
0.949615 0.516754 0.000000
0.974884 0.516754 0.000000
1.000000 0.516754 0.000000
0.000000 0.550262 0.000000
0.069550 0.550262 0.000000
0.119476 0.550262 0.000000
0.163605 0.550262 0.000000
0.204468 0.550262 0.000000
0.243073 0.550262 0.000000
0.279968 0.550262 0.000000
0.315521 0.550262 0.000000
0.349915 0.550262 0.000000
0.383362 0.550262 0.000000
0.415985 0.550262 0.000000
0.447906 0.550262 0.000000
0.479156 0.550262 0.000000
0.509827 0.550262 0.000000
0.539948 0.550262 0.000000
0.569641 0.550262 0.000000
0.598877 0.550262 0.000000
0.627716 0.550262 0.000000
0.656158 0.550262 0.000000
0.684235 0.550262 0.000000
0.711975 0.550262 0.000000
0.739410 0.550262 0.000000
0.766571 0.550262 0.000000
0.793427 0.550262 0.000000
0.820068 0.550262 0.000000
0.846436 0.550262 0.000000
0.872528 0.550262 0.000000
0.898438 0.550262 0.000000
0.924133 0.550262 0.000000
0.949615 0.550262 0.000000
0.974884 0.550262 0.000000
1.000000 0.550262 0.000000
0.000000 0.583954 0.000000
0.069550 0.583954 0.000000
0.119476 0.583954 0.000000
0.163605 0.583954 0.000000
0.204468 0.583954 0.000000
0.243073 0.583954 0.000000
0.279968 0.583954 0.000000
0.315521 0.583954 0.000000
0.349915 0.583954 0.000000
0.383362 0.583954 0.000000
0.415985 0.583954 0.000000
0.447906 0.583954 0.000000
0.479156 0.583954 0.000000
0.509827 0.583954 0.000000
0.539948 0.583954 0.000000
0.569641 0.583954 0.000000
0.598877 0.583954 0.000000
0.627716 0.583954 0.000000
0.656158 0.583954 0.000000
0.684235 0.583954 0.000000
0.711975 0.583954 0.000000
0.739410 0.583954 0.000000
0.766571 0.583954 0.000000
0.793427 0.583954 0.000000
0.820068 0.583954 0.000000
0.846436 0.583954 0.000000
0.872528 0.583954 0.000000
0.898438 0.583954 0.000000
0.924133 0.583954 0.000000
0.949615 0.583954 0.000000
0.974884 0.583954 0.000000
1.000000 0.583954 0.000000
0.000000 0.617798 0.000000
0.069550 0.617798 0.000000
0.119476 0.617798 0.000000
0.163605 0.617798 0.000000
0.204468 0.617798 0.000000
0.243073 0.617798 0.000000
0.279968 0.617798 0.000000
0.315521 0.617798 0.000000
0.349915 0.617798 0.000000
0.383362 0.617798 0.000000
0.415985 0.617798 0.000000
0.447906 0.617798 0.000000
0.479156 0.617798 0.000000
0.509827 0.617798 0.000000
0.539948 0.617798 0.000000
0.569641 0.617798 0.000000
0.598877 0.617798 0.000000
0.627716 0.617798 0.000000
0.656158 0.617798 0.000000
0.684235 0.617798 0.000000
0.711975 0.617798 0.000000
0.739410 0.617798 0.000000
0.766571 0.617798 0.000000
0.793427 0.617798 0.000000
0.820068 0.617798 0.000000
0.846436 0.617798 0.000000
0.872528 0.617798 0.000000
0.898438 0.617798 0.000000
0.924133 0.617798 0.000000
0.949615 0.617798 0.000000
0.974884 0.617798 0.000000
1.000000 0.617798 0.000000
0.000000 0.651825 0.000000
0.069550 0.651825 0.000000
0.119476 0.651825 0.000000
0.163605 0.651825 0.000000
0.204468 0.651825 0.000000
0.243073 0.651825 0.000000
0.279968 0.651825 0.000000
0.315521 0.651825 0.000000
0.349915 0.651825 0.000000
0.383362 0.651825 0.000000
0.415985 0.651825 0.000000
0.447906 0.651825 0.000000
0.479156 0.651825 0.000000
0.509827 0.651825 0.000000
0.539948 0.651825 0.000000
0.569641 0.651825 0.000000
0.598877 0.651825 0.000000
0.627716 0.651825 0.000000
0.656158 0.651825 0.000000
0.684235 0.651825 0.000000
0.711975 0.651825 0.000000
0.739410 0.651825 0.000000
0.766571 0.651825 0.000000
0.793427 0.651825 0.000000
0.820068 0.651825 0.000000
0.846436 0.651825 0.000000
0.872528 0.651825 0.000000
0.898438 0.651825 0.000000
0.924133 0.651825 0.000000
0.949615 0.651825 0.000000
0.974884 0.651825 0.000000
1.000000 0.651825 0.000000
0.000000 0.686035 0.000000
0.069550 0.686035 0.000000
0.119476 0.686035 0.000000
0.163605 0.686035 0.000000
0.204468 0.686035 0.000000
0.243073 0.686035 0.000000
0.279968 0.686035 0.000000
0.315521 0.686035 0.000000
0.349915 0.686035 0.000000
0.383362 0.686035 0.000000
0.415985 0.686035 0.000000
0.447906 0.686035 0.000000
0.479156 0.686035 0.000000
0.509827 0.686035 0.000000
0.539948 0.686035 0.000000
0.569641 0.686035 0.000000
0.598877 0.686035 0.000000
0.627716 0.686035 0.000000
0.656158 0.686035 0.000000
0.684235 0.686035 0.000000
0.711975 0.686035 0.000000
0.739410 0.686035 0.000000
0.766571 0.686035 0.000000
0.793427 0.686035 0.000000
0.820068 0.686035 0.000000
0.846436 0.686035 0.000000
0.872528 0.686035 0.000000
0.898438 0.686035 0.000000
0.924133 0.686035 0.000000
0.949615 0.686035 0.000000
0.974884 0.686035 0.000000
1.000000 0.686035 0.000000
0.000000 0.720367 0.000000
0.069550 0.720367 0.000000
0.119476 0.720367 0.000000
0.163605 0.720367 0.000000
0.204468 0.720367 0.000000
0.243073 0.720367 0.000000
0.279968 0.720367 0.000000
0.315521 0.720367 0.000000
0.349915 0.720367 0.000000
0.383362 0.720367 0.000000
0.415985 0.720367 0.000000
0.447906 0.720367 0.000000
0.479156 0.720367 0.000000
0.509827 0.720367 0.000000
0.539948 0.720367 0.000000
0.569641 0.720367 0.000000
0.598877 0.720367 0.000000
0.627716 0.720367 0.000000
0.656158 0.720367 0.000000
0.684235 0.720367 0.000000
0.711975 0.720367 0.000000
0.739410 0.720367 0.000000
0.766571 0.720367 0.000000
0.793427 0.720367 0.000000
0.820068 0.720367 0.000000
0.846436 0.720367 0.000000
0.872528 0.720367 0.000000
0.898438 0.720367 0.000000
0.924133 0.720367 0.000000
0.949615 0.720367 0.000000
0.974884 0.720367 0.000000
1.000000 0.720367 0.000000
0.000000 0.754852 0.000000
0.069550 0.754852 0.000000
0.119476 0.754852 0.000000
0.163605 0.754852 0.000000
0.204468 0.754852 0.000000
0.243073 0.754852 0.000000
0.279968 0.754852 0.000000
0.315521 0.754852 0.000000
0.349915 0.754852 0.000000
0.383362 0.754852 0.000000
0.415985 0.754852 0.000000
0.447906 0.754852 0.000000
0.479156 0.754852 0.000000
0.509827 0.754852 0.000000
0.539948 0.754852 0.000000
0.569641 0.754852 0.000000
0.598877 0.754852 0.000000
0.627716 0.754852 0.000000
0.656158 0.754852 0.000000
0.684235 0.754852 0.000000
0.711975 0.754852 0.000000
0.739410 0.754852 0.000000
0.766571 0.754852 0.000000
0.793427 0.754852 0.000000
0.820068 0.754852 0.000000
0.846436 0.754852 0.000000
0.872528 0.754852 0.000000
0.898438 0.754852 0.000000
0.924133 0.754852 0.000000
0.949615 0.754852 0.000000
0.974884 0.754852 0.000000
1.000000 0.754852 0.000000
0.000000 0.789490 0.000000
0.069550 0.789490 0.000000
0.119476 0.789490 0.000000
0.163605 0.789490 0.000000
0.204468 0.789490 0.000000
0.243073 0.789490 0.000000
0.279968 0.789490 0.000000
0.315521 0.789490 0.000000
0.349915 0.789490 0.000000
0.383362 0.789490 0.000000
0.415985 0.789490 0.000000
0.447906 0.789490 0.000000
0.479156 0.789490 0.000000
0.509827 0.789490 0.000000
0.539948 0.789490 0.000000
0.569641 0.789490 0.000000
0.598877 0.789490 0.000000
0.627716 0.789490 0.000000
0.656158 0.789490 0.000000
0.684235 0.789490 0.000000
0.711975 0.789490 0.000000
0.739410 0.789490 0.000000
0.766571 0.789490 0.000000
0.793427 0.789490 0.000000
0.820068 0.789490 0.000000
0.846436 0.789490 0.000000
0.872528 0.789490 0.000000
0.898438 0.789490 0.000000
0.924133 0.789490 0.000000
0.949615 0.789490 0.000000
0.974884 0.789490 0.000000
1.000000 0.789490 0.000000
0.000000 0.824249 0.000000
0.069550 0.824249 0.000000
0.119476 0.824249 0.000000
0.163605 0.824249 0.000000
0.204468 0.824249 0.000000
0.243073 0.824249 0.000000
0.279968 0.824249 0.000000
0.315521 0.824249 0.000000
0.349915 0.824249 0.000000
0.383362 0.824249 0.000000
0.415985 0.824249 0.000000
0.447906 0.824249 0.000000
0.479156 0.824249 0.000000
0.509827 0.824249 0.000000
0.539948 0.824249 0.000000
0.569641 0.824249 0.000000
0.598877 0.824249 0.000000
0.627716 0.824249 0.000000
0.656158 0.824249 0.000000
0.684235 0.824249 0.000000
0.711975 0.824249 0.000000
0.739410 0.824249 0.000000
0.766571 0.824249 0.000000
0.793427 0.824249 0.000000
0.820068 0.824249 0.000000
0.846436 0.824249 0.000000
0.872528 0.824249 0.000000
0.898438 0.824249 0.000000
0.924133 0.824249 0.000000
0.949615 0.824249 0.000000
0.974884 0.824249 0.000000
1.000000 0.824249 0.000000
0.000000 0.859161 0.000000
0.069550 0.859161 0.000000
0.119476 0.859161 0.000000
0.163605 0.859161 0.000000
0.204468 0.859161 0.000000
0.243073 0.859161 0.000000
0.279968 0.859161 0.000000
0.315521 0.859161 0.000000
0.349915 0.859161 0.000000
0.383362 0.859161 0.000000
0.415985 0.859161 0.000000
0.447906 0.859161 0.000000
0.479156 0.859161 0.000000
0.509827 0.859161 0.000000
0.539948 0.859161 0.000000
0.569641 0.859161 0.000000
0.598877 0.859161 0.000000
0.627716 0.859161 0.000000
