res/luts/Warmer.CUBE
#Created by: Adobe Photoshop Export Color Lookup Plugin
TITLE "Untitled-1"
#LUT size
LUT_3D_SIZE 8
#data domain
#LUT data points
DOMAIN_MIN 0.000000 0.000000 0.000000
DOMAIN_MAX 0.903226 0.903226 0.903226
0.000000 0.000000 0.000000
0.204468 0.000000 0.000000
0.349915 0.000000 0.000000
0.479156 0.000000 0.000000
0.598877 0.000000 0.000000
0.711975 0.000000 0.000000
0.820068 0.000000 0.000000
0.924133 0.000000 0.000000
0.000000 0.105377 0.000000
0.204468 0.105377 0.000000
0.349915 0.105377 0.000000
0.479156 0.105377 0.000000
0.598877 0.105377 0.000000
0.711975 0.105377 0.000000
0.820068 0.105377 0.000000
0.924133 0.105377 0.000000
0.000000 0.225708 0.000000
0.204468 0.225708 0.000000
0.349915 0.225708 0.000000
0.479156 0.225708 0.000000
0.598877 0.225708 0.000000
0.711975 0.225708 0.000000
0.820068 0.225708 0.000000
0.924133 0.225708 0.000000
0.000000 0.352417 0.000000
0.204468 0.352417 0.000000
0.349915 0.352417 0.000000
0.479156 0.352417 0.000000
0.598877 0.352417 0.000000
0.711975 0.352417 0.000000
0.820068 0.352417 0.000000
0.924133 0.352417 0.000000
0.000000 0.483459 0.000000
0.204468 0.483459 0.000000
0.349915 0.483459 0.000000
0.479156 0.483459 0.000000
0.598877 0.483459 0.000000
0.711975 0.483459 0.000000
0.820068 0.483459 0.000000
0.924133 0.483459 0.000000
0.000000 0.617798 0.000000
0.204468 0.617798 0.000000
0.349915 0.617798 0.000000
0.479156 0.617798 0.000000
0.598877 0.617798 0.000000
0.711975 0.617798 0.000000
0.820068 0.617798 0.000000
0.924133 0.617798 0.000000
0.000000 0.754852 0.000000
0.204468 0.754852 0.000000
0.349915 0.754852 0.000000
0.479156 0.754852 0.000000
0.598877 0.754852 0.000000
0.711975 0.754852 0.000000
0.820068 0.754852 0.000000
0.924133 0.754852 0.000000
0.000000 0.894196 0.000000
0.204468 0.894196 0.000000
0.349915 0.894196 0.000000
0.479156 0.894196 0.000000
0.598877 0.894196 0.000000
0.711975 0.894196 0.000000
0.820068 0.894196 0.000000
0.924133 0.894196 0.000000
0.000000 0.000000 0.070007
0.204468 0.000000 0.070007
0.349915 0.000000 0.070007
0.479156 0.000000 0.070007
0.598877 0.000000 0.070007
0.711975 0.000000 0.070007
0.820068 0.000000 0.070007
0.924133 0.000000 0.070007
0.000000 0.105377 0.070007
0.204468 0.105377 0.070007
0.349915 0.105377 0.070007
0.479156 0.105377 0.070007
0.598877 0.105377 0.070007
0.711975 0.105377 0.070007
0.820068 0.105377 0.070007
0.924133 0.105377 0.070007
0.000000 0.225708 0.070007
0.204468 0.225708 0.070007
0.349915 0.225708 0.070007
0.479156 0.225708 0.070007
0.598877 0.225708 0.070007
0.711975 0.225708 0.070007
0.820068 0.225708 0.070007
0.924133 0.225708 0.070007
0.000000 0.352417 0.070007
0.204468 0.352417 0.070007
0.349915 0.352417 0.070007
0.479156 0.352417 0.070007
0.598877 0.352417 0.070007
0.711975 0.352417 0.070007
0.820068 0.352417 0.070007
0.924133 0.352417 0.070007
0.000000 0.483459 0.070007
0.204468 0.483459 0.070007
0.349915 0.483459 0.070007
0.479156 0.483459 0.070007
0.598877 0.483459 0.070007
0.711975 0.483459 0.070007
0.820068 0.483459 0.070007
0.924133 0.483459 0.070007
0.000000 0.617798 0.070007
0.204468 0.617798 0.070007
0.349915 0.617798 0.070007
0.479156 0.617798 0.070007
0.598877 0.617798 0.070007
0.711975 0.617798 0.070007
0.820068 0.617798 0.070007
0.924133 0.617798 0.070007
0.000000 0.754852 0.070007
0.204468 0.754852 0.070007
0.349915 0.754852 0.070007
0.479156 0.754852 0.070007
0.598877 0.754852 0.070007
0.711975 0.754852 0.070007
0.820068 0.754852 0.070007
0.924133 0.754852 0.070007
0.000000 0.894196 0.070007
0.204468 0.894196 0.070007
0.349915 0.894196 0.070007
0.479156 0.894196 0.070007
0.598877 0.894196 0.070007
0.711975 0.894196 0.070007
0.820068 0.894196 0.070007
0.924133 0.894196 0.070007
0.000000 0.000000 0.172180
0.204468 0.000000 0.172180
0.349915 0.000000 0.172180
0.479156 0.000000 0.172180
0.598877 0.000000 0.172180
0.711975 0.000000 0.172180
0.820068 0.000000 0.172180
0.924133 0.000000 0.172180
0.000000 0.105377 0.172180
0.204468 0.105377 0.172180
0.349915 0.105377 0.172180
0.479156 0.105377 0.172180
0.598877 0.105377 0.172180
0.711975 0.105377 0.172180
0.820068 0.105377 0.172180
0.924133 0.105377 0.172180
0.000000 0.225708 0.172180
0.204468 0.225708 0.172180
0.349915 0.225708 0.172180
0.479156 0.225708 0.172180
0.598877 0.225708 0.172180
0.711975 0.225708 0.172180
0.820068 0.225708 0.172180
0.924133 0.225708 0.172180
0.000000 0.352417 0.172180
0.204468 0.352417 0.172180
0.349915 0.352417 0.172180
0.479156 0.352417 0.172180
0.598877 0.352417 0.172180
0.711975 0.352417 0.172180
0.820068 0.352417 0.172180
0.924133 0.352417 0.172180
0.000000 0.483459 0.172180
0.204468 0.483459 0.172180
0.349915 0.483459 0.172180
0.479156 0.483459 0.172180
0.598877 0.483459 0.172180
0.711975 0.483459 0.172180
0.820068 0.483459 0.172180
0.924133 0.483459 0.172180
0.000000 0.617798 0.172180
0.204468 0.617798 0.172180
0.349915 0.617798 0.172180
0.479156 0.617798 0.172180
0.598877 0.617798 0.172180
0.711975 0.617798 0.172180
0.820068 0.617798 0.172180
0.924133 0.617798 0.172180
0.000000 0.754852 0.172180
0.204468 0.754852 0.172180
0.349915 0.754852 0.172180
0.479156 0.754852 0.172180
0.598877 0.754852 0.172180
0.711975 0.754852 0.172180
0.820068 0.754852 0.172180
0.924133 0.754852 0.172180
0.000000 0.894196 0.172180
0.204468 0.894196 0.172180
0.349915 0.894196 0.172180
0.479156 0.894196 0.172180
0.598877 0.894196 0.172180
0.711975 0.894196 0.172180
0.820068 0.894196 0.172180
0.924133 0.894196 0.172180
0.000000 0.000000 0.291534
0.204468 0.000000 0.291534
0.349915 0.000000 0.291534
0.479156 0.000000 0.291534
0.598877 0.000000 0.291534
0.711975 0.000000 0.291534
0.820068 0.000000 0.291534
0.924133 0.000000 0.291534
0.000000 0.105377 0.291534
0.204468 0.105377 0.291534
0.349915 0.105377 0.291534
0.479156 0.105377 0.291534
0.598877 0.105377 0.291534
0.711975 0.105377 0.291534
0.820068 0.105377 0.291534
0.924133 0.105377 0.291534
0.000000 0.225708 0.291534
0.204468 0.225708 0.291534
0.349915 0.225708 0.291534
0.479156 0.225708 0.291534
0.598877 0.225708 0.291534
0.711975 0.225708 0.291534
0.820068 0.225708 0.291534
0.924133 0.225708 0.291534
0.000000 0.352417 0.291534
0.204468 0.352417 0.291534
0.349915 0.352417 0.291534
0.479156 0.352417 0.291534
0.598877 0.352417 0.291534
0.711975 0.352417 0.291534
0.820068 0.352417 0.291534
0.924133 0.352417 0.291534
0.000000 0.483459 0.291534
0.204468 0.483459 0.291534
0.349915 0.483459 0.291534
0.479156 0.483459 0.291534
0.598877 0.483459 0.291534
0.711975 0.483459 0.291534
0.820068 0.483459 0.291534
0.924133 0.483459 0.291534
0.000000 0.617798 0.291534
0.204468 0.617798 0.291534
0.349915 0.617798 0.291534
0.479156 0.617798 0.291534
0.598877 0.617798 0.291534
0.711975 0.617798 0.291534
0.820068 0.617798 0.291534
0.924133 0.617798 0.291534
0.000000 0.754852 0.291534
0.204468 0.754852 0.291534
0.349915 0.754852 0.291534
0.479156 0.754852 0.291534
0.598877 0.754852 0.291534
0.711975 0.754852 0.291534
0.820068 0.754852 0.291534
0.924133 0.754852 0.291534
0.000000 0.894196 0.291534
0.204468 0.894196 0.291534
0.349915 0.894196 0.291534
0.479156 0.894196 0.291534
0.598877 0.894196 0.291534
0.711975 0.894196 0.291534
0.820068 0.894196 0.291534
0.924133 0.894196 0.291534
0.000000 0.000000 0.423615
0.204468 0.000000 0.423615
0.349915 0.000000 0.423615
0.479156 0.000000 0.423615
0.598877 0.000000 0.423615
0.711975 0.000000 0.423615
0.820068 0.000000 0.423615
0.924133 0.000000 0.423615
0.000000 0.105377 0.423615
0.204468 0.105377 0.423615
0.349915 0.105377 0.423615
0.479156 0.105377 0.423615
0.598877 0.105377 0.423615
0.711975 0.105377 0.423615
0.820068 0.105377 0.423615
0.924133 0.105377 0.423615
0.000000 0.225708 0.423615
0.204468 0.225708 0.423615
0.349915 0.225708 0.423615
0.479156 0.225708 0.423615
0.598877 0.225708 0.423615
0.711975 0.225708 0.423615
0.820068 0.225708 0.423615
0.924133 0.225708 0.423615
0.000000 0.352417 0.423615
0.204468 0.352417 0.423615
0.349915 0.352417 0.423615
0.479156 0.352417 0.423615
0.598877 0.352417 0.423615
0.711975 0.352417 0.423615
0.820068 0.352417 0.423615
0.924133 0.352417 0.423615
0.000000 0.483459 0.423615
0.204468 0.483459 0.423615
0.349915 0.483459 0.423615
0.479156 0.483459 0.423615
0.598877 0.483459 0.423615
0.711975 0.483459 0.423615
0.820068 0.483459 0.423615
0.924133 0.483459 0.423615
0.000000 0.617798 0.423615
0.204468 0.617798 0.423615
0.349915 0.617798 0.423615
0.479156 0.617798 0.423615
0.598877 0.617798 0.423615
0.711975 0.617798 0.423615
0.820068 0.617798 0.423615
0.924133 0.617798 0.423615
0.000000 0.754852 0.423615
0.204468 0.754852 0.423615
0.349915 0.754852 0.423615
0.479156 0.754852 0.423615
0.598877 0.754852 0.423615
0.711975 0.754852 0.423615
0.820068 0.754852 0.423615
0.924133 0.754852 0.423615
0.000000 0.894196 0.423615
0.204468 0.894196 0.423615
0.349915 0.894196 0.423615
0.479156 0.894196 0.423615
0.598877 0.894196 0.423615
0.711975 0.894196 0.423615
0.820068 0.894196 0.423615
0.924133 0.894196 0.423615
0.000000 0.000000 0.566010
0.204468 0.000000 0.566010
0.349915 0.000000 0.566010
0.479156 0.000000 0.566010
0.598877 0.000000 0.566010
0.711975 0.000000 0.566010
0.820068 0.000000 0.566010
0.924133 0.000000 0.566010
0.000000 0.105377 0.566010
0.204468 0.105377 0.566010
0.349915 0.105377 0.566010
0.479156 0.105377 0.566010
0.598877 0.105377 0.566010
0.711975 0.105377 0.566010
0.820068 0.105377 0.566010
0.924133 0.105377 0.566010
0.000000 0.225708 0.566010
0.204468 0.225708 0.566010
0.349915 0.225708 0.566010
0.479156 0.225708 0.566010
0.598877 0.225708 0.566010
0.711975 0.225708 0.566010
0.820068 0.225708 0.566010
0.924133 0.225708 0.566010
0.000000 0.352417 0.566010
0.204468 0.352417 0.566010
0.349915 0.352417 0.566010
0.479156 0.352417 0.566010
0.598877 0.352417 0.566010
0.711975 0.352417 0.566010
0.820068 0.352417 0.566010
0.924133 0.352417 0.566010
0.000000 0.483459 0.566010
0.204468 0.483459 0.566010
0.349915 0.483459 0.566010
0.479156 0.483459 0.566010
0.598877 0.483459 0.566010
0.711975 0.483459 0.566010
0.820068 0.483459 0.566010
0.924133 0.483459 0.566010
0.000000 0.617798 0.566010
0.204468 0.617798 0.566010
0.349915 0.617798 0.566010
0.479156 0.617798 0.566010
0.598877 0.617798 0.566010
0.711975 0.617798 0.566010
0.820068 0.617798 0.566010
0.924133 0.617798 0.566010
0.000000 0.754852 0.566010
0.204468 0.754852 0.566010
0.349915 0.754852 0.566010
0.479156 0.754852 0.566010
0.598877 0.754852 0.566010
0.711975 0.754852 0.566010
0.820068 0.754852 0.566010
0.924133 0.754852 0.566010
0.000000 0.894196 0.566010
0.204468 0.894196 0.566010
0.349915 0.894196 0.566010
0.479156 0.894196 0.566010
0.598877 0.894196 0.566010
0.711975 0.894196 0.566010
0.820068 0.894196 0.566010
0.924133 0.894196 0.566010
0.000000 0.000000 0.717224
0.204468 0.000000 0.717224
0.349915 0.000000 0.717224
0.479156 0.000000 0.717224
0.598877 0.000000 0.717224
0.711975 0.000000 0.717224
0.820068 0.000000 0.717224
0.924133 0.000000 0.717224
0.000000 0.105377 0.717224
0.204468 0.105377 0.717224
0.349915 0.105377 0.717224
0.479156 0.105377 0.717224
0.598877 0.105377 0.717224
0.711975 0.105377 0.717224
0.820068 0.105377 0.717224
0.924133 0.105377 0.717224
0.000000 0.225708 0.717224
0.204468 0.225708 0.717224
0.349915 0.225708 0.717224
0.479156 0.225708 0.717224
0.598877 0.225708 0.717224
0.711975 0.225708 0.717224
0.820068 0.225708 0.717224
0.924133 0.225708 0.717224
0.000000 0.352417 0.717224
0.204468 0.352417 0.717224
0.349915 0.352417 0.717224
0.479156 0.352417 0.717224
0.598877 0.352417 0.717224
0.711975 0.352417 0.717224
0.820068 0.352417 0.717224
0.924133 0.352417 0.717224
0.000000 0.483459 0.717224
0.204468 0.483459 0.717224
0.349915 0.483459 0.717224
0.479156 0.483459 0.717224
0.598877 0.483459 0.717224
0.711975 0.483459 0.717224
0.820068 0.483459 0.717224
0.924133 0.483459 0.717224
0.000000 0.617798 0.717224
0.204468 0.617798 0.717224
0.349915 0.617798 0.717224
0.479156 0.617798 0.717224
0.598877 0.617798 0.717224
0.711975 0.617798 0.717224
0.820068 0.617798 0.717224
0.924133 0.617798 0.717224
0.000000 0.754852 0.717224
0.204468 0.754852 0.717224
0.349915 0.754852 0.717224
0.479156 0.754852 0.717224
0.598877 0.754852 0.717224
0.711975 0.754852 0.717224
0.820068 0.754852 0.717224
0.924133 0.754852 0.717224
0.000000 0.894196 0.717224
0.204468 0.894196 0.717224
0.349915 0.894196 0.717224
0.479156 0.894196 0.717224
0.598877 0.894196 0.717224
0.711975 0.894196 0.717224
0.820068 0.894196 0.717224
0.924133 0.894196 0.717224
0.000000 0.000000 0.876190
0.204468 0.000000 0.876190
0.349915 0.000000 0.876190
0.479156 0.000000 0.876190
0.598877 0.000000 0.876190
0.711975 0.000000 0.876190
0.820068 0.000000 0.876190
0.924133 0.000000 0.876190
0.000000 0.105377 0.876190
0.204468 0.105377 0.876190
0.349915 0.105377 0.876190
0.479156 0.105377 0.876190
0.598877 0.105377 0.876190
0.711975 0.105377 0.876190
0.820068 0.105377 0.876190
0.924133 0.105377 0.876190
0.000000 0.225708 0.876190
0.204468 0.225708 0.876190
0.349915 0.225708 0.876190
0.479156 0.225708 0.876190
0.598877 0.225708 0.876190
0.711975 0.225708 0.876190
0.820068 0.225708 0.876190
0.924133 0.225708 0.876190
0.000000 0.352417 0.876190
0.204468 0.352417 0.876190
0.349915 0.352417 0.876190
0.479156 0.352417 0.876190
0.598877 0.352417 0.876190
0.711975 0.352417 0.876190
0.820068 0.352417 0.876190
0.924133 0.352417 0.876190
0.000000 0.483459 0.876190
0.204468 0.483459 0.876190
0.349915 0.483459 0.876190
0.479156 0.483459 0.876190
0.598877 0.483459 0.876190
0.711975 0.483459 0.876190
0.820068 0.483459 0.876190
0.924133 0.483459 0.876190
0.000000 0.617798 0.876190
0.204468 0.617798 0.876190
0.349915 0.617798 0.876190
0.479156 0.617798 0.876190
0.598877 0.617798 0.876190
0.711975 0.617798 0.876190
0.820068 0.617798 0.876190
0.924133 0.617798 0.876190
0.000000 0.754852 0.876190
0.204468 0.754852 0.876190
0.349915 0.754852 0.876190
0.479156 0.754852 0.876190
0.598877 0.754852 0.876190
0.711975 0.754852 0.876190
0.820068 0.754852 0.876190
0.924133 0.754852 0.876190
0.000000 0.894196 0.876190
0.204468 0.894196 0.876190
0.349915 0.894196 0.876190
0.479156 0.894196 0.876190
0.598877 0.894196 0.876190
0.711975 0.894196 0.876190
0.820068 0.894196 0.876190
0.924133 0.894196 0.876190
