res/luts/Warmer.CUBE
#Created by: Adobe Photoshop Export Color Lookup Plugin
TITLE "Untitled-1"
#LUT size
LUT_3D_SIZE 5
#data domain
#LUT data points
DOMAIN_MIN 0.000000 0.000000 0.000000
DOMAIN_MAX 0.903226 0.903226 0.903226
0.000000 0.000000 0.000000
0.315521 0.000000 0.000000
0.539948 0.000000 0.000000
0.739410 0.000000 0.000000
0.924133 0.000000 0.000000
0.000000 0.194885 0.000000
0.315521 0.194885 0.000000
0.539948 0.194885 0.000000
0.739410 0.194885 0.000000
0.924133 0.194885 0.000000
0.000000 0.417450 0.000000
0.315521 0.417450 0.000000
0.539948 0.417450 0.000000
0.739410 0.417450 0.000000
0.924133 0.417450 0.000000
0.000000 0.651825 0.000000
0.315521 0.651825 0.000000
0.539948 0.651825 0.000000
0.739410 0.651825 0.000000
0.924133 0.651825 0.000000
0.000000 0.894196 0.000000
0.315521 0.894196 0.000000
0.539948 0.894196 0.000000
0.739410 0.894196 0.000000
0.924133 0.894196 0.000000
0.000000 0.000000 0.144775
0.315521 0.000000 0.144775
0.539948 0.000000 0.144775
0.739410 0.000000 0.144775
0.924133 0.000000 0.144775
0.000000 0.194885 0.144775
0.315521 0.194885 0.144775
0.539948 0.194885 0.144775
0.739410 0.194885 0.144775
0.924133 0.194885 0.144775
0.000000 0.417450 0.144775
0.315521 0.417450 0.144775
0.539948 0.417450 0.144775
0.739410 0.417450 0.144775
0.924133 0.417450 0.144775
0.000000 0.651825 0.144775
0.315521 0.651825 0.144775
0.539948 0.651825 0.144775
0.739410 0.651825 0.144775
0.924133 0.651825 0.144775
0.000000 0.894196 0.144775
0.315521 0.894196 0.144775
0.539948 0.894196 0.144775
0.739410 0.894196 0.144775
0.924133 0.894196 0.144775
0.000000 0.000000 0.356140
0.315521 0.000000 0.356140
0.539948 0.000000 0.356140
0.739410 0.000000 0.356140
0.924133 0.000000 0.356140
0.000000 0.194885 0.356140
0.315521 0.194885 0.356140
0.539948 0.194885 0.356140
0.739410 0.194885 0.356140
0.924133 0.194885 0.356140
0.000000 0.417450 0.356140
0.315521 0.417450 0.356140
0.539948 0.417450 0.356140
0.739410 0.417450 0.356140
0.924133 0.417450 0.356140
0.000000 0.651825 0.356140
0.315521 0.651825 0.356140
0.539948 0.651825 0.356140
0.739410 0.651825 0.356140
0.924133 0.651825 0.356140
0.000000 0.894196 0.356140
0.315521 0.894196 0.356140
0.539948 0.894196 0.356140
0.739410 0.894196 0.356140
0.924133 0.894196 0.356140
0.000000 0.000000 0.603058
0.315521 0.000000 0.603058
0.539948 0.000000 0.603058
0.739410 0.000000 0.603058
0.924133 0.000000 0.603058
0.000000 0.194885 0.603058
0.315521 0.194885 0.603058
0.539948 0.194885 0.603058
0.739410 0.194885 0.603058
0.924133 0.194885 0.603058
0.000000 0.417450 0.603058
0.315521 0.417450 0.603058
0.539948 0.417450 0.603058
0.739410 0.417450 0.603058
0.924133 0.417450 0.603058
0.000000 0.651825 0.603058
0.315521 0.651825 0.603058
0.539948 0.651825 0.603058
0.739410 0.651825 0.603058
0.924133 0.651825 0.603058
0.000000 0.894196 0.603058
0.315521 0.894196 0.603058
0.539948 0.894196 0.603058
0.739410 0.894196 0.603058
0.924133 0.894196 0.603058
0.000000 0.000000 0.876190
0.315521 0.000000 0.876190
0.539948 0.000000 0.876190
0.739410 0.000000 0.876190
0.924133 0.000000 0.876190
0.000000 0.194885 0.876190
0.315521 0.194885 0.876190
0.539948 0.194885 0.876190
0.739410 0.194885 0.876190
0.924133 0.194885 0.876190
0.000000 0.417450 0.876190
0.315521 0.417450 0.876190
0.539948 0.417450 0.876190
0.739410 0.417450 0.876190
0.924133 0.417450 0.876190
0.000000 0.651825 0.876190
0.315521 0.651825 0.876190
0.539948 0.651825 0.876190
0.739410 0.651825 0.876190
0.924133 0.651825 0.876190
0.000000 0.894196 0.876190
0.315521 0.894196 0.876190
0.539948 0.894196 0.876190
0.739410 0.894196 0.876190
0.924133 0.894196 0.876190
